!!!COM: Haydn, Franz Joseph
!!!OPR: Symphony in D Major
!!!OTL: Affettuoso 
!!!OMV: 1
!!!SCT: H I:93
!!!SCA: Thematisch-bibliographisches Werkevererzeichnis (A. van Hoboken)
!!!YOR: Dover Edition
!!!EED: Frances Bennion
!!!ENC: Frances Bennion
!!!CDT: 1732/3/31/-1809/5/31/
!!!OCY: Österreich
!!!YEC: Copyright (c) 1994, 2000 Center for Computer Assisted Research in the Humanities
!!!YEM: Rights to all derivative editions reserved.
!!!YEM: Refer to licensing agreement for further details.
!!!YEN: United States of America
**kern	**kern	**kern	**kern	**kern	**kern	**kern	**kern	**kern	**kern	**kern	**kern	**kern	**kern	**kern	**kern
*k[f#c#]	*k[]	*k[]	*k[f#c#]	*k[f#c#]	*k[f#c#]	*k[f#c#]	*k[f#c#]	*k[f#c#]	*k[f#c#]	*k[f#c#]	*k[f#c#]	*k[f#c#]	*k[]	*k[]	*k[]
*D:	*D:	*D:	*D:	*D:	*D:	*D:	*D:	*D:	*D:	*D:	*D:	*D:	*D:	*D:	*D:
*clefF	*clefF	*clefF4	*clefF	*clefF	*clefC3	*clefF4	*clefF4	*clefF	*clefF	*clefF	*clefF4	*clefF4	*clefF	*clefF	*clefF
*M3/4	*M3/4	*M3/4	*M3/4	*M3/4	*M3/4	*M3/4	*M3/4	*M3/4	*M3/4	*M3/4	*M3/4	*M3/4	*M3/4	*M3/4	*M3/4
*tb32	*tb32	*tb32	*tb32	*tb32	*tb32	*tb32	*tb32	*tb32	*tb32	*tb32	*tb32	*tb32	*tb32	*tb32	*tb32
=1	=1	=1	=1	=1	=1	=1	=1	=1	=1	=1	=1	=1	=1	=1	=1
2dd	2c	2D	2d	2d	2d	2D	2D	2dd	2d	2d	2D	2D	2cc	2c	2cc
8.r	8.r	8.r	8.r	8.r	8.r	8.r	8.r	8.r	8.r	8.r	8.r	8.r	8.r	8.r	8.r
16dd	16c	16D	16d	16d	16d	16D	16D	16dd	16d	16d	16D	16D	16cc	16c	16cc
=2	=2	=2	=2	=2	=2	=2	=2	=2	=2	=2	=2	=2	=2	=2	=2
2dd	2c	2D	2d	2d	2d	2D	2D	2dd	2d	2d	2D	2D	2cc	2c	2cc
4r	4r	4r	4r	4r	4r	4r	4r	4r	4r	4r	4r	4r	4r	4r	4r
=3	=3	=3	=3	=3	=3	=3	=3	=3	=3	=3	=3	=3	=3	=3	=3
2.r	2.r	2.r	4ff#	2.r	2.r	2.r	2.r	2.r	2.r	2.r	2.r	2.r	2.r	2.r	2.r
.	.	.	4dd	.	.	.	.	.	.	.	.	.	.	.	.
.	.	.	4a	.	.	.	.	.	.	.	.	.	.	.	.
=4	=4	=4	=4	=4	=4	=4	=4	=4	=4	=4	=4	=4	=4	=4	=4
2.r	2.r	2.r	8g	8..d	8..B	8..B	8..B	2.r	2.r	2.r	2.r	2.r	2.r	2.r	2.r
.	.	.	16.g	.	.	.	.	.	.	.	.	.	.	.	.
.	.	.	32a	32c#	32A	32A	32A	.	.	.	.	.	.	.	.
.	.	.	8b	8B	8G	8G	8G	.	.	.	.	.	.	.	.
.	.	.	4.r	4.r	4.r	4.r	4.r	.	.	.	.	.	.	.	.
=5	=5	=5	=5	=5	=5	=5	=5	=5	=5	=5	=5	=5	=5	=5	=5
2.r	2.r	2.r	4b	2.r	2.r	2.r	2.r	2.r	2.r	2.r	2.r	2.r	2.r	2.r	2.r
.	.	.	4g	.	.	.	.	.	.	.	.	.	.	.	.
.	.	.	4e	.	.	.	.	.	.	.	.	.	.	.	.
=6	=6	=6	=6	=6	=6	=6	=6	=6	=6	=6	=6	=6	=6	=6	=6
2.r	2.r	2.r	8c#	8..G	4E	4AA	4AA	2.r	2.r	2.r	2.r	2.r	4.r	4.r	2.r
.	.	.	16.c#	.	.	.	.	.	.	.	.	.	.	.	.
.	.	.	32e	32g	.	.	.	.	.	.	.	.	.	.	.
.	.	.	8d	8f#	8F#	8D	8D	.	.	.	.	.	.	.	.
.	.	.	4.r	4.r	4.r	4.r	4.r	.	.	.	.	.	8cc	8c	.
.	.	.	.	.	.	.	.	.	.	.	.	.	8cc	8c	.
.	.	.	.	.	.	.	.	.	.	.	.	.	8cc	8c	.
=7	=7	=7	=7	=7	=7	=7	=7	=7	=7	=7	=7	=7	=7	=7	=7
2.ccc#	4c	4D	4gg	8e 8c#	8g	8D	8D	2.ccc#	2.gg	2.ee	2.c#	2.G	4cc	4c	4cc
.	.	.	.	8e 8c#	8g	8D	8D	.	.	.	.	.	.	.	.
.	2r	2r	4ee	8e 8c#	8g	8D	8D	.	.	.	.	.	2r	2r	2r
.	.	.	.	8e 8c#	8g	8D	8D	.	.	.	.	.	.	.	.
.	.	.	4cc#	8e 8c#	8g	8D	8D	.	.	.	.	.	.	.	.
.	.	.	.	8e 8c#	8g	8D	8D	.	.	.	.	.	.	.	.
=8	=8	=8	=8	=8	=8	=8	=8	=8	=8	=8	=8	=8	=8	=8	=8
2.ddd	4c	4D	4aa	8f# 8A	8f#	8D	8D	2.ddd	2.ff#	2.dd	2.d	2.F#	4cc	4c	4cc
.	.	.	.	8f# 8A	8f#	8D	8D	.	.	.	.	.	.	.	.
.	2r	2r	4ff#	8f# 8A	8f#	8D	8D	.	.	.	.	.	2r	2r	2r
.	.	.	.	8f# 8A	8f#	8D	8D	.	.	.	.	.	.	.	.
.	.	.	4dd	8f# 8A	8f#	8D	8D	.	.	.	.	.	.	.	.
.	.	.	.	8A 8f#	8f#	8D	8D	.	.	.	.	.	.	.	.
=9	=9	=9	=9	=9	=9	=9	=9	=9	=9	=9	=9	=9	=9	=9	=9
4bb	2.r	2.r	4b	4b	8B	8B	8B	4bb	4bb	4b	4B	4B	2.r	2.r	2.r
.	.	.	.	.	8B	8B	8B	.	.	.	.	.	.	.	.
4gg#	.	.	4g#	4g#	8G#	8G#	8G#	4gg#	4gg#	4g#	4G#	4G#	.	.	.
.	.	.	.	.	8G#	8G#	8G#	.	.	.	.	.	.	.	.
4ee	.	.	4e	4e	8E	8E	8E	4ee	4ee	4e	4E	4E	.	.	.
.	.	.	.	.	8E	8E	8E	.	.	.	.	.	.	.	.
=10	=10	=10	=10	=10	=10	=10	=10	=10	=10	=10	=10	=10	=10	=10	=10
2aa	4g	4AA	2.a	2A	2A	2A	2A	2aa	2aa	2a	2A	2A	4g	4g	4g
.	2r	2r	.	.	.	.	.	.	.	.	.	.	2r	2r	2r
4r	.	.	.	4r	4r	4r	4r	4r	4r	4r	4r	4r	.	.	.
=11	=11	=11	=11	=11	=11	=11	=11	=11	=11	=11	=11	=11	=11	=11	=11
2.r	2.r	2.r	4b-	8B- 8e-	4E-	8GG	8GG	2.r	2.r	2.r	2.r	2.r	2.r	2.r	2.r
.	.	.	.	8B- 8e-	.	8GG	8GG	.	.	.	.	.	.	.	.
.	.	.	4g	8B- 8e-	4G	8GG	8GG	.	.	.	.	.	.	.	.
.	.	.	.	8B- 8e-	.	8GG	8GG	.	.	.	.	.	.	.	.
.	.	.	4e-	8B- 8e-	4B-	8GG	8GG	.	.	.	.	.	.	.	.
.	.	.	.	8B- 8e-	.	8GG	8GG	.	.	.	.	.	.	.	.
=12	=12	=12	=12	=12	=12	=12	=12	=12	=12	=12	=12	=12	=12	=12	=12
2.r	2.r	2.r	8d	4A-	4B-	4FF	4FF	2.r	2.r	2.r	2.r	2.r	2.r	2.r	2.r
.	.	.	16.d	.	.	.	.	.	.	.	.	.	.	.	.
.	.	.	32e-	.	.	.	.	.	.	.	.	.	.	.	.
.	.	.	8f	2r	2r	2r	2r	.	.	.	.	.	.	.	.
.	.	.	4.r	.	.	.	.	.	.	.	.	.	.	.	.
=13	=13	=13	=13	=13	=13	=13	=13	=13	=13	=13	=13	=13	=13	=13	=13
2.r	2.r	2.r	4a-	16A-	2D	8FF	8FF	2.r	2.r	2.r	2.BB-	2.BB-	2.r	2.r	2.r
.	.	.	.	16B-	.	.	.	.	.	.	.	.	.	.	.
.	.	.	.	16A-	.	8FF	8FF	.	.	.	.	.	.	.	.
.	.	.	.	16B-	.	.	.	.	.	.	.	.	.	.	.
.	.	.	4f	16A-	.	8FF	8FF	.	.	.	.	.	.	.	.
.	.	.	.	16B-	.	.	.	.	.	.	.	.	.	.	.
.	.	.	.	16A-	.	8FF	8FF	.	.	.	.	.	.	.	.
.	.	.	.	16B-	.	.	.	.	.	.	.	.	.	.	.
.	.	.	4d	16A-	4B-	8FF	8FF	.	.	.	.	.	.	.	.
.	.	.	.	16B-	.	.	.	.	.	.	.	.	.	.	.
.	.	.	.	16A-	.	8FF	8FF	.	.	.	.	.	.	.	.
.	.	.	.	16B-	.	.	.	.	.	.	.	.	.	.	.
=14	=14	=14	=14	=14	=14	=14	=14	=14	=14	=14	=14	=14	=14	=14	=14
2.r	2.r	2.r	8e-	4G	4B-	4GG	4GG	2.r	2.r	2.r	4E-	4E-	2.r	2.r	2.r
.	.	.	16.e-	.	.	.	.	.	.	.	.	.	.	.	.
.	.	.	32f	.	.	.	.	.	.	.	.	.	.	.	.
.	.	.	8g	2r	2r	2r	2r	.	.	.	2r	2r	.	.	.
.	.	.	4.r	.	.	.	.	.	.	.	.	.	.	.	.
=15	=15	=15	=15	=15	=15	=15	=15	=15	=15	=15	=15	=15	=15	=15	=15
4bb-	2.r	2.r	8.bb- 8.b-	8e- 8B-	8G	8GG	8GG	4bb-	8.bb-	4e-	2G	2G	2.r	2.r	2.r
.	.	.	.	8e- 8b-	8g	8GG	8GG	.	.	.	.	.	.	.	.
.	.	.	16gg	.	.	.	.	.	16gg	.	.	.	.	.	.
4eee-	.	.	4ee-	8e- 8b-	8g	8GG	8GG	4eee-	4ee-	4b-	.	.	.	.	.
.	.	.	.	8b- 8e-	8g	8GG	8GG	.	.	.	.	.	.	.	.
4ddd	.	.	4dd	8f	8b	8GG#	8GG#	4ddd	4dd	4f	4G#	4G#	.	.	.
.	.	.	.	8f	8b	8GG#	8GG#	.	.	.	.	.	.	.	.
=16	=16	=16	=16	=16	=16	=16	=16	=16	=16	=16	=16	=16	=16	=16	=16
8ccc#	4G	4AA	8cc#	4e	4a	4AA	4AA	8ccc#	8cc#	4e	4A	4A	4g	4G	4g
8aa	.	.	8a 8aa	.	.	.	.	8aa	8aa	.	.	.	.	.	.
8aa	8r	8r	8aa 8a	8r	8r	8r	8r	8aa	8aa	8r	8r	8r	8r	8r	8r
8aa	8G	8AA	8a 8aa	8c#	8A	8A	8A	8aa	8aa	8cc#	8A	8A	8g	8G	8g
8aa	8G	8AA	8aa 8a	8d	8B	8B	8B	8aa	8aa	8dd	8B	8B	8g	8G	8g
8aa	8G	8AA	8a 8aa	8e	8c#	8c#	8c#	8aa	8aa	8ee	8c#	8c#	8g	8G	8g
=17	=17	=17	=17	=17	=17	=17	=17	=17	=17	=17	=17	=17	=17	=17	=17
8aa	4G	4AA	8aa 8a	8f	8d	8d	8d	8aa	8aa	8ff	8d	8d	4g	4G	4g
8aa	.	.	8aa 8a	16.f	16.d	16.d	16.d	8aa	8aa	16.ff	16.d	16.d	.	.	.
.	.	.	.	32g	32e	32e	32e	.	.	32gg	32e	32e	.	.	.
8aa	8r	8r	8a 8aa	8a	8f	8f	8f	8aa	8aa	8aa	8f	8f	8r	8r	8r
8aa	8G	8AA	8aa 8a	8a	8f	8f	8f	8aa	8aa	8aa	8f	8f	8g	8G	8g
8aa	8G	8AA	8aa 8a	16g	16e	16e	16e	8aa	8aa	16gg	16e	16e	8g	8G	8g
.	.	.	.	16f	16d	16d	16d	.	.	16ff	16d	16d	.	.	.
8aa	8G	8AA	8aa 8a	16e	16c#	16c#	16c#	8aa	8aa	16ee	16c#	16c#	8g	8G	8g
.	.	.	.	16f	16d	16d	16d	.	.	16ff	16d	16d	.	.	.
=18	=18	=18	=18	=18	=18	=18	=18	=18	=18	=18	=18	=18	=18	=18	=18
8.aa	2c	4D	8.aa	2d	2B	2B	2B	8.aa	8.aa	2dd	2B	2B	2cc	2c	2cc
16gg#	.	.	16gg#	.	.	.	.	16gg#	16gg#	.	.	.	.	.	.
4gg#	.	4..r	4gg#	.	.	.	.	4gg#	4gg#	.	.	.	.	.	.
8.r	8.r	.	8.r	8.r	8.r	8.r	8.r	8.r	8.r	8.r	8.r	8.r	8.r	8.r	8.r
16gg	16c	16D	16gg	16dd 16d	16B-	16B-	16B-	16gg	16gg	16dd	16B-	16B-	16cc	16c	16cc
=19	=19	=19	=19	=19	=19	=19	=19	=19	=19	=19	=19	=19	=19	=19	=19
2gg	2c	4D	2gg	2dd 2d	2B-	2B-	2B-	2gg	2gg	2dd	2B-	2B-	2cc	2c	2cc
.	.	4..r	.	.	.	.	.	.	.	.	.	.	.	.	.
8.r	8.r	.	8.r	8.r	8.r	8.r	8.r	8.r	8.r	8.r	8.r	8.r	8.r	8.r	8.r
16eee	16g	16AA	16gg	16e 16cc#	16A	16A	16A	16eee	16gg	16cc#	16A	16A	16dd	16g	16dd
=20	=20	=20	=20	=20	=20	=20	=20	=20	=20	=20	=20	=20	=20	=20	=20
8eee	8g	8AA	8gg	8cc# 8e	8A	8A	8A	8eee	8gg	8cc#	8A	8A	8dd	8g	8dd
8r	8r	8r	8r	8r	8r	8r	8r	8r	8r	8r	8r	8r	8r	8r	8r
8eee	8g	8AA	8eee 8a	8ee 8g 8A	8A 8g	8AA	8AA	8eee	8gg	8cc#	8AA	8AA	8dd	8g	8dd
4.r	4.r	4.r	4.r	4.r	4.r	4.r	4.r	4.r	4.r	4.r	4.r	4.r	4.r	4.r	4.r
=21	=21	=21	=21	=21	=21	=21	=21	=21	=21	=21	=21	=21	=21	=21	=21
2.r	2.r	2.r	2f#	2d	4D	4DD	4D	2.r	2.r	2.r	2.r	2.r	2.r	2.r	2.r
.	.	.	.	.	4d	4D	2r	.	.	.	.	.	.	.	.
.	.	.	8g	8e	4d	4D	.	.	.	.	.	.	.	.	.
.	.	.	8e	8c#	.	.	.	.	.	.	.	.	.	.	.
=22	=22	=22	=22	=22	=22	=22	=22	=22	=22	=22	=22	=22	=22	=22	=22
2.r	2.r	2.r	4f#	4d	4d	4D	2.r	2.r	2.r	2.r	2.r	2.r	2.r	2.r	2.r
.	.	.	4g	4e	4d	4D	.	.	.	.	.	.	.	.	.
.	.	.	4a	4f#	4d	4D	.	.	.	.	.	.	.	.	.
=23	=23	=23	=23	=23	=23	=23	=23	=23	=23	=23	=23	=23	=23	=23	=23
2.r	2.r	2.r	2b	2.g	4D	4DD	4D	2.r	2.r	2.r	2.r	2.r	2.r	2.r	2.r
.	.	.	.	.	4d	4D	2r	.	.	.	.	.	.	.	.
.	.	.	8ee	.	4d	4D	.	.	.	.	.	.	.	.	.
.	.	.	8cc#	.	.	.	.	.	.	.	.	.	.	.	.
=24	=24	=24	=24	=24	=24	=24	=24	=24	=24	=24	=24	=24	=24	=24	=24
2.r	2.r	2.r	4dd	4f#	4d	4D	2.r	2.r	2.r	2.r	2.r	2.r	2.r	2.r	2.r
.	.	.	4a	2r	2r	2r	.	.	.	.	.	.	.	.	.
.	.	.	4a	.	.	.	.	.	.	.	.	.	.	.	.
=25	=25	=25	=25	=25	=25	=25	=25	=25	=25	=25	=25	=25	=25	=25	=25
2.r	2.r	2.r	4a	2d	2.r	2B	2B	2.r	2.r	2.r	2.r	2.r	2.r	2.r	2.r
.	.	.	4g	.	.	.	.	.	.	.	.	.	.	.	.
.	.	.	4f#	4c#	.	4A	4A	.	.	.	.	.	.	.	.
=26	=26	=26	=26	=26	=26	=26	=26	=26	=26	=26	=26	=26	=26	=26	=26
2.r	2.r	2.r	4f#	2B	2.r	2G	2G	2.r	2.r	2.r	2.r	2.r	2.r	2.r	2.r
.	.	.	4e	.	.	.	.	.	.	.	.	.	.	.	.
.	.	.	4d	4A	.	4F#	4F#	.	.	.	.	.	.	.	.
=27	=27	=27	=27	=27	=27	=27	=27	=27	=27	=27	=27	=27	=27	=27	=27
2.r	2.r	2.r	8c#	4G	2.r	2E	2E	2.r	2.r	2.r	2.r	2.r	2.r	2.r	2.r
.	.	.	8a	.	.	.	.	.	.	.	.	.	.	.	.
.	.	.	4g	4c#	.	.	.	.	.	.	.	.	.	.	.
.	.	.	4f#	4d	.	4D	4D	.	.	.	.	.	.	.	.
=28	=28	=28	=28	=28	=28	=28	=28	=28	=28	=28	=28	=28	=28	=28	=28
2.r	2.r	2.r	2f#	2d	2.r	4AA	4AA	2.r	2.r	2.r	2.r	2.r	2.r	2.r	2.r
.	.	.	.	.	.	4A	4A	.	.	.	.	.	.	.	.
.	.	.	8e	8c#	.	4A	4AA	.	.	.	.	.	.	.	.
.	.	.	8r	8r	.	.	.	.	.	.	.	.	.	.	.
=29	=29	=29	=29	=29	=29	=29	=29	=29	=29	=29	=29	=29	=29	=29	=29
2.r	2.r	2.r	2f#	2d	4D	4DD	4D	2.r	2.r	2.r	2.r	2.r	2.r	2.r	2.r
.	.	.	.	.	4d	4D	2r	.	.	.	.	.	.	.	.
.	.	.	8g	8e	4d	4D	.	.	.	.	.	.	.	.	.
.	.	.	8e	8c#	.	.	.	.	.	.	.	.	.	.	.
=30	=30	=30	=30	=30	=30	=30	=30	=30	=30	=30	=30	=30	=30	=30	=30
2.r	2.r	2.r	4f#	4d	4d	4D	2.r	2.r	2.r	2.r	2.r	2.r	2.r	2.r	2.r
.	.	.	4g	4e	4d	4D	.	.	.	.	.	.	.	.	.
.	.	.	4a	4f#	4d	4D	.	.	.	.	.	.	.	.	.
=31	=31	=31	=31	=31	=31	=31	=31	=31	=31	=31	=31	=31	=31	=31	=31
2.r	2.r	2.r	2b	2.g	4D	4DD	4D	2.r	2.r	2.r	2.r	2.r	2.r	2.r	2.r
.	.	.	.	.	4d	4D	2r	.	.	.	.	.	.	.	.
.	.	.	8ee	.	4d	4D	.	.	.	.	.	.	.	.	.
.	.	.	8cc#	.	.	.	.	.	.	.	.	.	.	.	.
=32	=32	=32	=32	=32	=32	=32	=32	=32	=32	=32	=32	=32	=32	=32	=32
2.r	2.r	2.r	4dd	4f#	4d	4D	2.r	2.r	2.r	2.r	2.r	2.r	2.r	2.r	2.r
.	.	.	4a	2r	2r	2r	.	.	.	.	.	.	.	.	.
.	.	.	4a	.	.	.	.	.	.	.	.	.	.	.	.
=33	=33	=33	=33	=33	=33	=33	=33	=33	=33	=33	=33	=33	=33	=33	=33
2.r	2.r	2.r	4a	4f#	2d#	2B	2B	2.r	2.r	2.r	2.r	2.r	2.r	2.r	2.r
.	.	.	4f#	4d#	.	.	.	.	.	.	.	.	.	.	.
.	.	.	4g	4e	4e	4E	4E	.	.	.	.	.	.	.	.
=34	=34	=34	=34	=34	=34	=34	=34	=34	=34	=34	=34	=34	=34	=34	=34
2.r	2.r	2.r	4g	4e	2c#	2A	2A	2.r	2.r	2.r	2.r	2.r	2.r	2.r	2.r
.	.	.	4e	4c#	.	.	.	.	.	.	.	.	.	.	.
.	.	.	4f#	4d	4d	4D	4D	.	.	.	.	.	.	.	.
=35	=35	=35	=35	=35	=35	=35	=35	=35	=35	=35	=35	=35	=35	=35	=35
2.r	2.r	2.r	8f#	8B	4B	4GG	4GG	2.r	2.r	2.r	2.r	2.r	2.r	2.r	2.r
.	.	.	8e	8g	.	.	.	.	.	.	.	.	.	.	.
.	.	.	4d	4f#	4A	4AA	4AA	.	.	.	.	.	.	.	.
.	.	.	4c#	4e	8G	4AA	4AA	.	.	.	.	.	.	.	.
.	.	.	.	.	8E	.	.	.	.	.	.	.	.	.	.
=36	=36	=36	=36	=36	=36	=36	=36	=36	=36	=36	=36	=36	=36	=36	=36
4.ddd	2.e	4D	4.d 4.dd	4A 4f#	8D	4D	4D	4.ddd	2.dd	2a	2.d	2.d	2.cc	2.e	2.cc
.	.	.	.	.	8F#	.	.	.	.	.	.	.	.	.	.
.	.	4D	.	4f# 4A	8A	4D	4D	.	.	.	.	.	.	.	.
8aa	.	.	8a	.	8d	.	.	8aa	.	.	.	.	.	.	.
8ff#	.	4D	8f#	4f# 4A	8f#	4D	4D	8ff#	.	4f#	.	.	.	.	.
8dd	.	.	8d	.	8a	.	.	8dd	.	.	.	.	.	.	.
=37	=37	=37	=37	=37	=37	=37	=37	=37	=37	=37	=37	=37	=37	=37	=37
4cc#	4g	4AA	8c#	4g 4A	4g	4E	4E	4cc#	4cc#	4g	4e	4e	4g	4g	4g
.	.	.	8e	.	.	.	.	.	.	.	.	.	.	.	.
2r	2r	2r	8a	2r	2r	2r	2r	2r	2r	2r	2r	2r	2r	2r	2r
.	.	.	8cc#	.	.	.	.	.	.	.	.	.	.	.	.
.	.	.	8ee	.	.	.	.	.	.	.	.	.	.	.	.
.	.	.	8r	.	.	.	.	.	.	.	.	.	.	.	.
=38	=38	=38	=38	=38	=38	=38	=38	=38	=38	=38	=38	=38	=38	=38	=38
4.eee	2.g	4AA	4.ee	4e 4c#	8A	4AA	4AA	4.eee	2.ee	2.g	2.c#	2.c#	2.dd	2.g	2.dd
.	.	.	.	.	8c#	.	.	.	.	.	.	.	.	.	.
.	.	4AA	.	4c# 4e	8e	4AA	4AA	.	.	.	.	.	.	.	.
8ccc#	.	.	8cc#	.	8a	.	.	8ccc#	.	.	.	.	.	.	.
8aa	.	4AA	8a	4c# 4e	8cc#	4AA	4AA	8aa	.	.	.	.	.	.	.
8ee	.	.	8e	.	8a	.	.	8ee	.	.	.	.	.	.	.
=39	=39	=39	=39	=39	=39	=39	=39	=39	=39	=39	=39	=39	=39	=39	=39
4ff#	4cc	4D	8d	4d 4f#	4dd	4D	4D	4ff#	4dd	4f#	4d	4d	4ee	4cc	4ee
.	.	.	8f#	.	.	.	.	.	.	.	.	.	.	.	.
2r	2r	2r	8a	2r	2r	2r	2r	2r	2r	2r	2r	2r	2r	2r	2r
.	.	.	8dd	.	.	.	.	.	.	.	.	.	.	.	.
.	.	.	8ff#	.	.	.	.	.	.	.	.	.	.	.	.
.	.	.	8r	.	.	.	.	.	.	.	.	.	.	.	.
=40	=40	=40	=40	=40	=40	=40	=40	=40	=40	=40	=40	=40	=40	=40	=40
8d	2.r	2.r	8d	2.r	2.r	2.r	2.r	2.r	2.r	2.r	2.r	2.r	2.r	2.r	2.r
8f#	.	.	8f#	.	.	.	.	.	.	.	.	.	.	.	.
8a	.	.	8a	.	.	.	.	.	.	.	.	.	.	.	.
8dd	.	.	8dd	.	.	.	.	.	.	.	.	.	.	.	.
8ff#	.	.	8ff#	.	.	.	.	.	.	.	.	.	.	.	.
8r	.	.	8r	.	.	.	.	.	.	.	.	.	.	.	.
=41	=41	=41	=41	=41	=41	=41	=41	=41	=41	=41	=41	=41	=41	=41	=41
2.r	2.r	2.r	8d	2.r	2.r	2.r	2.r	2.r	2.r	2.r	8D	2.r	2.r	2.r	2.r
.	.	.	8f#	.	.	.	.	.	.	.	8F#	.	.	.	.
.	.	.	8a	.	.	.	.	.	.	.	8A	.	.	.	.
.	.	.	8dd	.	.	.	.	.	.	.	8d	.	.	.	.
.	.	.	8ff#	.	.	.	.	.	.	.	8f#	.	.	.	.
.	.	.	8r	.	.	.	.	.	.	.	8r	.	.	.	.
=42	=42	=42	=42	=42	=42	=42	=42	=42	=42	=42	=42	=42	=42	=42	=42
2.r	2.r	2.r	8d	2.r	2.r	2.r	2.r	2.r	8d	2.r	2.r	2.r	2.r	2.r	2.r
.	.	.	8f#	.	.	.	.	.	8f#	.	.	.	.	.	.
.	.	.	8a	.	.	.	.	.	8a	.	.	.	.	.	.
.	.	.	8dd	.	.	.	.	.	8dd	.	.	.	.	.	.
.	.	.	8ff#	.	.	.	.	.	8ff#	.	.	.	.	.	.
.	.	.	8r	.	.	.	.	.	8r	.	.	.	.	.	.
=43	=43	=43	=43	=43	=43	=43	=43	=43	=43	=43	=43	=43	=43	=43	=43
4r	4r	4AA	8cc#	2cc# 2ee	2.A 2.a	2G	2G	4r	4r	4r	4r	4r	4r	4r	4r
.	.	.	8ee	.	.	.	.	.	.	.	.	.	.	.	.
4ccc#	4g	4r	8aa	.	.	.	.	4ccc#	4aa	4ee	4G	4G	4dd	4g	4dd
.	.	.	8ccc#	.	.	.	.	.	.	.	.	.	.	.	.
4ddd	4cc	4D	8ddd	4a 4d 4ff#	.	4F#	4F#	4ddd	4ddd	4ff#	4F#	4F#	4ee	4cc	4ee
.	.	.	8dd	.	.	.	.	.	.	.	.	.	.	.	.
=44	=44	=44	=44	=44	=44	=44	=44	=44	=44	=44	=44	=44	=44	=44	=44
4r	4r	4AA	8cc#	2cc# 2ee	2.A 2.a	2G	2G	4r	4r	4r	4r	4r	4r	4r	4r
.	.	.	8ee	.	.	.	.	.	.	.	.	.	.	.	.
4ccc#	4g	4r	8a	.	.	.	.	4ccc#	4aa	4ee	4G	4G	4dd	4g	4dd
.	.	.	8ccc#	.	.	.	.	.	.	.	.	.	.	.	.
4ddd	4cc	4D	8ddd	4ff# 4d 4a	.	4F#	4F#	4ddd	4ddd	4ff#	4F#	4F#	4ee	4cc	4ee
.	.	.	8dd	.	.	.	.	.	.	.	.	.	.	.	.
=45	=45	=45	=45	=45	=45	=45	=45	=45	=45	=45	=45	=45	=45	=45	=45
4r	4r	4AA	8cc#	4cc# 4ee	4a 4A	4G	4G	4r	4r	4r	4r	4r	4r	4r	4r
.	.	.	8ee	.	.	.	.	.	.	.	.	.	.	.	.
4ccc#	4g	4AA	8a	4cc# 4ee	4A 4a	4G	4G	4ccc#	4aa	4ee	4G	4G	4dd	4g	4dd
.	.	.	8ccc#	.	.	.	.	.	.	.	.	.	.	.	.
4ddd	4cc	4D	8ddd	4d 4ff# 4a	4A 4a	4F#	4F#	4ddd	4ddd	4ff#	4F#	4F#	4ee	4cc	4ee
.	.	.	8dd	.	.	.	.	.	.	.	.	.	.	.	.
=46	=46	=46	=46	=46	=46	=46	=46	=46	=46	=46	=46	=46	=46	=46	=46
4aa	2dd	4AA	8a	4ee 4a	4A 4a	4C#	4C#	4aa	4aa	2ee	4C#	4C#	2dd	2g	2ff
.	.	.	8aa	.	.	.	.	.	.	.	.	.	.	.	.
4gg	.	4AA	8gg	4ee 4a	4c#	4c#	4c#	4gg	4gg	.	4c#	4c#	.	.	.
.	.	.	8a	.	.	.	.	.	.	.	.	.	.	.	.
4ff#	4cc	4D	8ff#	8ff#	4d	4d	4d	4ff#	4ff#	4dd	4d	4d	4ee	4cc	4ee
.	.	.	8a	8dd	.	.	.	.	.	.	.	.	.	.	.
=47	=47	=47	=47	=47	=47	=47	=47	=47	=47	=47	=47	=47	=47	=47	=47
8ee	4g	4AA	8ee	8cc#	8A	8AA	8AA	8ee	8ee	8cc#	8AA	8AA	4dd	4g	4dd
8r	.	.	8r	8r	8a	8A	8A	8r	8r	8r	8A	8A	.	.	.
8ccc#	2r	2r	8ccc#	8ee 8a	8g	8G	8G	8ccc#	8ccc#	8ee	8G	8G	2r	2r	2r
8r	.	.	8r	8r	8a	8A	8A	8r	8r	8r	8A	8A	.	.	.
8ddd	.	.	8ddd	8a 8ff#	8f#	8F#	8F#	8ddd	8ddd	8ff#	8F#	8F#	.	.	.
8r	.	.	8r	8r	8a	8A	8A	8r	8r	8r	8A	8A	.	.	.
=48	=48	=48	=48	=48	=48	=48	=48	=48	=48	=48	=48	=48	=48	=48	=48
8eee	2g	4AA	8aa 8a	8ee 8a	8c#	8C#	8C#	8eee	4aa	2ee	8C#	8C#	2dd	2g	2dd
8r	.	.	8r	8r	8a	8A	8A	8r	.	.	8A	8A	.	.	.
8gg	.	8AA	8gg 8a	8ee 8a	8cc#	8c#	8c#	8gg	4gg	.	8c#	8c#	.	.	.
8r	.	8AA	8r	8r	8a	8A	8A	8r	.	.	8A	8A	.	.	.
8ff#	4cc	4D	8ff# 8a	8dd	8dd	8d	8d	8ff#	4ff#	4dd	8d	8d	4ee	4cc	4ee
8r	.	.	8r	8r	8d	8D	8D	8r	.	.	8D	8D	.	.	.
=49	=49	=49	=49	=49	=49	=49	=49	=49	=49	=49	=49	=49	=49	=49	=49
8ee	4g	4AA	8ee 8a	8cc#	8A	8AA	8AA	8ee	8ee	8cc#	8AA	8AA	4dd	4g	4dd
8r	.	.	8r	8r	8a	8A	8A	8r	8r	8r	8A	8A	.	.	.
8ccc#	2r	2r	8ccc#	8ee 8a	8g	8G	8G	8ccc#	8ccc#	8ee	8G	8G	2r	2r	2r
8r	.	.	8r	8r	8a	8A	8A	8r	8r	8r	8A	8A	.	.	.
8ddd	.	.	8ddd	8ff# 8a	8f#	8F#	8F#	8ddd	8ddd	8ff#	8F#	8F#	.	.	.
8r	.	.	8r	8r	8a	8A	8A	8r	8r	8r	8A	8A	.	.	.
=50	=50	=50	=50	=50	=50	=50	=50	=50	=50	=50	=50	=50	=50	=50	=50
8eee	2g	4AA	8aa 8a	8ee 8a	8c#	8C#	8C#	8eee	4aa	2ee	8C#	8C#	2dd	2g	2dd
8r	.	.	8r	8r	8a	8A	8A	8r	.	.	8A	8A	.	.	.
8gg	.	8AA	8gg 8a	8ee 8a	8cc#	8c#	8c#	8gg	4gg	.	8c#	8c#	.	.	.
8r	.	8AA	8r	8r	8a	8A	8A	8r	.	.	8A	8A	.	.	.
8ff#	4cc	4D	8ff# 8a	8dd	8dd	8d	8d	8ff#	4ff#	4dd	8d	8d	4ee	4cc	4ee
8r	.	.	8r	8r	8d	8D	8D	8r	.	.	8D	8D	.	.	.
=51	=51	=51	=51	=51	=51	=51	=51	=51	=51	=51	=51	=51	=51	=51	=51
4ee	4g	4AA	8ee	4cc#	4a	4A	4A	4ee	4ee	4cc#	4A	4A	4dd	4g	4dd
.	.	.	8A	.	.	.	.	.	.	.	.	.	.	.	.
4aa	4g	8AA	8c#	4e 4cc#	4A	4AA	4AA	4aa	4ee	4cc#	4AA	4AA	4dd	4g	4dd
.	.	8AA	8e	.	.	.	.	.	.	.	.	.	.	.	.
4aa	4g	8AA	8a	4cc# 4e	4A	4AA	4AA	4aa	4ee	4cc#	4AA	4AA	4dd	4g	4dd
.	.	8AA	8cc#	.	.	.	.	.	.	.	.	.	.	.	.
=52	=52	=52	=52	=52	=52	=52	=52	=52	=52	=52	=52	=52	=52	=52	=52
4aa	4g	4AA	8ee	4cc# 4e	4A	4AA	4AA	4aa	4ee	4cc#	4AA	4AA	4dd	4g	4dd
.	.	.	8a	.	.	.	.	.	.	.	.	.	.	.	.
2r	2r	2r	8cc#	2r	2r	2r	2r	2r	2r	2r	2r	2r	2r	2r	2r
.	.	.	8ee	.	.	.	.	.	.	.	.	.	.	.	.
.	.	.	8aa	.	.	.	.	.	.	.	.	.	.	.	.
.	.	.	8aa	.	.	.	.	.	.	.	.	.	.	.	.
=53	=53	=53	=53	=53	=53	=53	=53	=53	=53	=53	=53	=53	=53	=53	=53
2aa	2.g	4AA	2aa	8cc#	8A	8AA	8AA	2aa	2aa	[2.ee	2.AA	2.AA	2.dd	2.g	2.dd
.	.	.	.	8dd	8B	8BB	8BB	.	.	.	.	.	.	.	.
.	.	2r	.	8ee	8c#	8C#	8C#	.	.	.	.	.	.	.	.
.	.	.	.	8ff#	8d	8D	8D	.	.	.	.	.	.	.	.
4gg	.	.	4gg	8gg	8e	8E	8E	4gg	4gg	.	.	.	.	.	.
.	.	.	.	8ee	8c#	8C#	8C#	.	.	.	.	.	.	.	.
=54	=54	=54	=54	=54	=54	=54	=54	=54	=54	=54	=54	=54	=54	=54	=54
[2.ff#	4cc	4D	[2.ff#	4ee	8d	8D	4D	[2.ff#	[2.ff#	4ee]	4D	4D	4ee	4cc	4ee
.	.	.	.	.	8e	8E	.	.	.	.	.	.	.	.	.
.	2r	2r	.	4dd	8f#	8F#	2r	.	.	4dd	4F#	4F#	2r	2r	2r
.	.	.	.	.	8b	8B	.	.	.	.	.	.	.	.	.
.	.	.	.	4cc#	8a#	8A#	.	.	.	4cc#	4A#	4A#	.	.	.
.	.	.	.	.	8f#	8F#	.	.	.	.	.	.	.	.	.
=55	=55	=55	=55	=55	=55	=55	=55	=55	=55	=55	=55	=55	=55	=55	=55
8ff#]	2.r	2.r	8ff#]	[2.dd	4b	[2B	4BB	8ff#]	2.ff#]	[2.dd	4B	4B	2.r	2.r	2.r
8aa#	.	.	8aa#	.	.	.	.	8aa#	.	.	.	.	.	.	.
8bb	.	.	8bb	.	4B	.	2r	8bb	.	.	4BB	4BB	.	.	.
8ccc#	.	.	8ccc#	.	.	.	.	8ccc#	.	.	.	.	.	.	.
8ddd	.	.	8ddd	.	8B	8B]	.	8ddd	.	.	8B	8B	.	.	.
8ff#	.	.	8ff#	.	8A	8A	.	8ff#	.	.	8A	8A	.	.	.
=56	=56	=56	=56	=56	=56	=56	=56	=56	=56	=56	=56	=56	=56	=56	=56
[2.ee	2.r	2.r	[2.ee	4dd]	8G#	8G#	4E	[2.ee	[2.ee	4dd]	2.G#	2.G#	2.r	2.r	2.r
.	.	.	.	.	8A	8A	.	.	.	.	.	.	.	.	.
.	.	.	.	4cc#	8B	8B	2r	.	.	4cc#	.	.	.	.	.
.	.	.	.	.	8c#	8c#	.	.	.	.	.	.	.	.	.
.	.	.	.	4b	8d	8d	.	.	.	4b	.	.	.	.	.
.	.	.	.	.	8G#	8G#	.	.	.	.	.	.	.	.	.
=57	=57	=57	=57	=57	=57	=57	=57	=57	=57	=57	=57	=57	=57	=57	=57
8ee]	2.r	2.r	8ee]	[2.cc#	4A	2A	4AA	8ee]	2.ee]	[2.cc#	4A	4A	2.r	2.r	2.r
8gg#	.	.	8gg#	.	.	.	.	8gg#	.	.	.	.	.	.	.
8aa	.	.	8aa	.	4r	.	4r	8aa	.	.	4AA	4AA	.	.	.
8bb	.	.	8bb	.	.	.	.	8bb	.	.	.	.	.	.	.
8ccc#	.	.	8ccc#	.	8a	8A	8A	8ccc#	.	.	8A	8A	.	.	.
8ee	.	.	8ee	.	8g#	8G#	8G#	8ee	.	.	8G#	8G#	.	.	.
=58	=58	=58	=58	=58	=58	=58	=58	=58	=58	=58	=58	=58	=58	=58	=58
2.dd	2.r	2.r	2.dd	4cc#]	8f#	8F#	8F#	2.dd	2.dd	4cc#]	8F#	8F#	2.r	2.r	2.r
.	.	.	.	.	8a	8A	8A	.	.	.	8A	8A	.	.	.
.	.	.	.	4b	8g#	8G#	8G#	.	.	4b	8G#	8G#	.	.	.
.	.	.	.	.	8b	8B	8B	.	.	.	8B	8B	.	.	.
.	.	.	.	[4b	8e	8E	8E	.	.	[4bb	8E	8E	.	.	.
.	.	.	.	.	8g#	8G#	8G#	.	.	.	8G#	8G#	.	.	.
=59	=59	=59	=59	=59	=59	=59	=59	=59	=59	=59	=59	=59	=59	=59	=59
4cc#	2.r	2.r	2.cc#	4b]	8a	8A	8A	4cc#	2.cc#	4bb]	8A	8A	2.r	2.r	2.r
.	.	.	.	.	8g#	8G#	8G#	.	.	.	8G#	8G#	.	.	.
4ccc#	.	.	.	4a	8f#	8F#	8F#	4ccc#	.	4aa	8F#	8F#	.	.	.
.	.	.	.	.	8e	8E	8E	.	.	.	8E	8E	.	.	.
4ccc#	.	.	.	4a	8d	8D	8D	4ccc#	.	4aa	8D	8D	.	.	.
.	.	.	.	.	8c#	8C#	8C#	.	.	.	8C#	8C#	.	.	.
=60	=60	=60	=60	=60	=60	=60	=60	=60	=60	=60	=60	=60	=60	=60	=60
2bb	2.r	2.r	4b	4a	8d	8D	8D	2bb	2b	4aa	8D	8D	2.r	2.r	2.r
.	.	.	.	.	8f#	8F#	8F#	.	.	.	8F#	8F#	.	.	.
.	.	.	4b	4.a	8d	8D	8D	.	.	4a	8D	8D	.	.	.
.	.	.	.	.	8f#	8F#	8F#	.	.	.	8F#	8F#	.	.	.
8ccc#	.	.	8cc#	.	8d#	8D#	8D#	8ccc#	8cc#	4a	8D#	8D#	.	.	.
8bb	.	.	8b	16g#	8f#	8F#	8F#	8bb	8b	.	8F#	8F#	.	.	.
.	.	.	.	16a	.	.	.	.	.	.	.	.	.	.	.
=61	=61	=61	=61	=61	=61	=61	=61	=61	=61	=61	=61	=61	=61	=61	=61
4bb	4dd	2.r	4b	4g#	4e	[2.E	[2.E	4bb	4b	4g#	4E	4E	4dd	4dd	4dd
4eee	2r	.	8e	4ee	4g#	.	.	4eee	2ee	4g#	4E	4E	2r	2r	2r
.	.	.	8g#	.	.	.	.	.	.	.	.	.	.	.	.
4eee	.	.	8b	4ee	4g#	.	.	4eee	.	4g#	4E	4E	.	.	.
.	.	.	8ee	.	.	.	.	.	.	.	.	.	.	.	.
=62	=62	=62	=62	=62	=62	=62	=62	=62	=62	=62	=62	=62	=62	=62	=62
2.ddd#	4dd	2.r	4ff#	2.dd#	2.a	2.E_	2.E_	2.ddd#	2.ff#	2.a	4EE	4EE	4dd	4dd	4dd
.	2r	.	8f#	.	.	.	.	.	.	.	4E	4E	2r	2r	2r
.	.	.	8a	.	.	.	.	.	.	.	.	.	.	.	.
.	.	.	8dd#	.	.	.	.	.	.	.	4E	4E	.	.	.
.	.	.	8ff#	.	.	.	.	.	.	.	.	.	.	.	.
=63	=63	=63	=63	=63	=63	=63	=63	=63	=63	=63	=63	=63	=63	=63	=63
2.ddd	4dd	2.r	4gg#	4dd	4b	2.E_	2.E_	2.ddd	2.gg#	2.b	4EE	4EE	4dd	4dd	4dd
.	2r	.	8g#	4dd	4b	.	.	.	.	.	4E	4E	2r	2r	2r
.	.	.	8b	.	.	.	.	.	.	.	.	.	.	.	.
.	.	.	8ee	4dd	4b	.	.	.	.	.	4E	4E	.	.	.
.	.	.	8gg#	.	.	.	.	.	.	.	.	.	.	.	.
=64	=64	=64	=64	=64	=64	=64	=64	=64	=64	=64	=64	=64	=64	=64	=64
2.ccc#	4dd	2.r	4aa	2.cc#	2.a	2.E_	2.E_	2.ccc#	2.aa	2.cc#	4EE	4EE	4dd	4dd	4dd
.	2r	.	16a	.	.	.	.	.	.	.	4E	4E	2r	2r	2r
.	.	.	16b	.	.	.	.	.	.	.	.	.	.	.	.
.	.	.	16cc#	.	.	.	.	.	.	.	.	.	.	.	.
.	.	.	16dd	.	.	.	.	.	.	.	.	.	.	.	.
.	.	.	16ee	.	.	.	.	.	.	.	4E	4E	.	.	.
.	.	.	16ff#	.	.	.	.	.	.	.	.	.	.	.	.
.	.	.	16gg#	.	.	.	.	.	.	.	.	.	.	.	.
.	.	.	16aa	.	.	.	.	.	.	.	.	.	.	.	.
=65	=65	=65	=65	=65	=65	=65	=65	=65	=65	=65	=65	=65	=65	=65	=65
2.gg#	4dd	2.r	4bb	4g#	4d	2.E]	2.E]	2.gg#	2.bb	2.dd	4EE	4EE	4dd	4dd	4dd
.	2r	.	8b	4g#	4d	.	.	.	.	.	4E	4E	2r	2r	2r
.	.	.	8dd	.	.	.	.	.	.	.	.	.	.	.	.
.	.	.	8gg#	4g#	4d	.	.	.	.	.	4E	4E	.	.	.
.	.	.	8bb	.	.	.	.	.	.	.	.	.	.	.	.
=66	=66	=66	=66	=66	=66	=66	=66	=66	=66	=66	=66	=66	=66	=66	=66
8aa	[2.g	4AA	8ccc#	8a	4c#	4AA	4AA	8aa	8ccc#	4cc#	4AA	4AA	[2.dd	[2.g	[2.dd
8r	.	.	8r	8r	.	.	.	8r	8r	.	.	.	.	.	.
8eee	.	2r	12eee	12ccc#	2r	2r	2r	8eee	8ccc#	2r	2r	2r	.	.	.
.	.	.	12eee	12ccc#	.	.	.	.	.	.	.	.	.	.	.
8r	.	.	.	.	.	.	.	8r	8r	.	.	.	.	.	.
.	.	.	12eee	12ccc#	.	.	.	.	.	.	.	.	.	.	.
8ccc#	.	.	12ccc#	12aa	.	.	.	8ccc#	8aa	.	.	.	.	.	.
.	.	.	12ccc#	12aa	.	.	.	.	.	.	.	.	.	.	.
8r	.	.	.	.	.	.	.	8r	8r	.	.	.	.	.	.
.	.	.	12ccc#	12aa	.	.	.	.	.	.	.	.	.	.	.
=67	=67	=67	=67	=67	=67	=67	=67	=67	=67	=67	=67	=67	=67	=67	=67
8aa	2.g]	2.r	12aa	12ee	2.r	2.r	2.r	8aa	8ee	2.r	2.r	2.r	2.dd]	2.g]	2.dd]
.	.	.	12aa	12ee	.	.	.	.	.	.	.	.	.	.	.
8r	.	.	.	.	.	.	.	8r	8r	.	.	.	.	.	.
.	.	.	12aa	12ee	.	.	.	.	.	.	.	.	.	.	.
8ee	.	.	12ee	12cc#	.	.	.	8ee	8cc#	.	.	.	.	.	.
.	.	.	12ee	12cc#	.	.	.	.	.	.	.	.	.	.	.
8r	.	.	.	.	.	.	.	8r	8r	.	.	.	.	.	.
.	.	.	12ee	12cc#	.	.	.	.	.	.	.	.	.	.	.
8cc#	.	.	12cc#	12a	.	.	.	8cc#	8a	.	.	.	.	.	.
.	.	.	12cc#	12a	.	.	.	.	.	.	.	.	.	.	.
8r	.	.	.	.	.	.	.	8r	8r	.	.	.	.	.	.
.	.	.	12cc#	12a	.	.	.	.	.	.	.	.	.	.	.
=68	=68	=68	=68	=68	=68	=68	=68	=68	=68	=68	=68	=68	=68	=68	=68
8ff#	[2.cc	4D	12ff#	12dd	4A	4D	4D	8ff#	8dd	2.r	4D	4D	[2.ee	[2.cc	[2.ee
.	.	.	12ff#	12dd	.	.	.	.	.	.	.	.	.	.	.
8r	.	.	.	.	.	.	.	8r	8r	.	.	.	.	.	.
.	.	.	12ff#	12dd	.	.	.	.	.	.	.	.	.	.	.
8aa	.	2r	12aa	12ff#	2r	2r	2r	8aa	8ff#	.	2r	2r	.	.	.
.	.	.	12aa	12ff#	.	.	.	.	.	.	.	.	.	.	.
8r	.	.	.	.	.	.	.	8r	8r	.	.	.	.	.	.
.	.	.	12aa	12ff#	.	.	.	.	.	.	.	.	.	.	.
8ff#	.	.	12ff#	12dd	.	.	.	8ff#	8dd	.	.	.	.	.	.
.	.	.	12ff#	12dd	.	.	.	.	.	.	.	.	.	.	.
8r	.	.	.	.	.	.	.	8r	8r	.	.	.	.	.	.
.	.	.	12ff#	12dd	.	.	.	.	.	.	.	.	.	.	.
=69	=69	=69	=69	=69	=69	=69	=69	=69	=69	=69	=69	=69	=69	=69	=69
8dd	2.cc]	2.r	12dd	12b	2.r	2.r	2.r	8dd	8b	2.r	2.r	2.r	2.ee]	2.cc]	2.ee]
.	.	.	12dd	12b	.	.	.	.	.	.	.	.	.	.	.
8r	.	.	.	.	.	.	.	8r	8r	.	.	.	.	.	.
.	.	.	12dd	12b	.	.	.	.	.	.	.	.	.	.	.
8ff#	.	.	12ff#	12dd	.	.	.	8ff#	8dd	.	.	.	.	.	.
.	.	.	12ff#	12dd	.	.	.	.	.	.	.	.	.	.	.
8r	.	.	.	.	.	.	.	8r	8r	.	.	.	.	.	.
.	.	.	12ff#	12dd	.	.	.	.	.	.	.	.	.	.	.
8dd	.	.	12dd	12b	.	.	.	8dd	8b	.	.	.	.	.	.
.	.	.	12dd	12b	.	.	.	.	.	.	.	.	.	.	.
8r	.	.	.	.	.	.	.	8r	8r	.	.	.	.	.	.
.	.	.	12dd	12b	.	.	.	.	.	.	.	.	.	.	.
=70	=70	=70	=70	=70	=70	=70	=70	=70	=70	=70	=70	=70	=70	=70	=70
2b	4dd	4D	2b 2e	2g#	2.e	2D	2D	2b	2g#	2b	2.e	2.e	4dd	4dd	4dd
.	2r	2r	.	.	.	.	.	.	.	.	.	.	2r	2r	2r
8ff#	.	.	8ff#	8g#	.	8d	8d	8ff#	8ff#	8g#	.	.	.	.	.
8ee	.	.	8ee	8a	.	8c#	8c#	8ee	8ee	8a	.	.	.	.	.
=71	=71	=71	=71	=71	=71	=71	=71	=71	=71	=71	=71	=71	=71	=71	=71
4ee	2.g	4AA	4ee	4a	4e	4c#	4c#	4ee	4ee	4a	4e	4e	2.dd	2.g	2.dd
2aa	.	8AA	2aa 2a	2A 2e	2E	2C#	2C#	2aa	2aa	2ee	2E	2E	.	.	.
.	.	8AA	.	.	.	.	.	.	.	.	.	.	.	.	.
.	.	4AA	.	.	.	.	.	.	.	.	.	.	.	.	.
=72	=72	=72	=72	=72	=72	=72	=72	=72	=72	=72	=72	=72	=72	=72	=72
8gg#	4cc	4D	8gg#	4f# 4A	4D	4D	4D	8gg#	8gg#	4a	4F#	4F#	4ee	4cc	4ee
8ff#	.	.	8ff#	.	.	.	.	8ff#	8ff#	.	.	.	.	.	.
8ee	2r	2r	8ee	2r	2r	2r	2r	8ee	8ee	2r	2r	2r	2r	2r	2r
8dd	.	.	8dd	.	.	.	.	8dd	8dd	.	.	.	.	.	.
8cc#	.	.	8cc#	.	.	.	.	8cc#	8cc#	.	.	.	.	.	.
8b	.	.	8b	.	.	.	.	8b	8b	.	.	.	.	.	.
=73	=73	=73	=73	=73	=73	=73	=73	=73	=73	=73	=73	=73	=73	=73	=73
2ee	2.dd	2.r	2a	2c#	4E	2.E	2.E	2ee	2a	2cc#	2.E	2.E	[2.dd	2.dd	[2.dd
.	.	.	.	.	4A	.	.	.	.	.	.	.	.	.	.
4gg#	.	.	8cc#	8e	4G#	.	.	4gg#	8cc#	4g#	.	.	.	.	.
.	.	.	8b	8d	.	.	.	.	8b	.	.	.	.	.	.
=74	=74	=74	=74	=74	=74	=74	=74	=74	=74	=74	=74	=74	=74	=74	=74
4aa	4g	4AA	8a	4c#	4A	4AA	4AA	4aa	4a	4a	4AA	4AA	4dd]	4g	4dd]
.	.	.	8A	.	.	.	.	.	.	.	.	.	.	.	.
2r	2r	2r	8B	2r	2r	2r	2r	2r	2r	2r	2r	2r	2r	2r	2r
.	.	.	8c#	.	.	.	.	.	.	.	.	.	.	.	.
.	.	.	8d	.	.	.	.	.	.	.	.	.	.	.	.
.	.	.	8e	.	.	.	.	.	.	.	.	.	.	.	.
=75	=75	=75	=75	=75	=75	=75	=75	=75	=75	=75	=75	=75	=75	=75	=75
2.r	2.r	2.r	8f#	2.r	2.r	2.r	2.r	2.r	2.r	2.r	2.r	2.r	2.r	2.r	2.r
.	.	.	8g#	.	.	.	.	.	.	.	.	.	.	.	.
.	.	.	8a	.	.	.	.	.	.	.	.	.	.	.	.
.	.	.	8b	.	.	.	.	.	.	.	.	.	.	.	.
.	.	.	8cc#	.	.	.	.	.	.	.	.	.	.	.	.
.	.	.	8dd	.	.	.	.	.	.	.	.	.	.	.	.
=76	=76	=76	=76	=76	=76	=76	=76	=76	=76	=76	=76	=76	=76	=76	=76
2.r	2.r	2.r	2ee	8c#	8A	4AA	4AA	2.r	2.r	2.r	2.r	2.r	2.r	2.r	2.r
.	.	.	.	8e	8c#	.	.	.	.	.	.	.	.	.	.
.	.	.	.	8c#	8A	2r	2r	.	.	.	.	.	.	.	.
.	.	.	.	8e	8c#	.	.	.	.	.	.	.	.	.	.
.	.	.	8cc#	8c#	8A	.	.	.	.	.	.	.	.	.	.
.	.	.	8a	8e	8c#	.	.	.	.	.	.	.	.	.	.
=77	=77	=77	=77	=77	=77	=77	=77	=77	=77	=77	=77	=77	=77	=77	=77
2.r	2.r	2.r	8a	8d	8B	4E	4E	2.r	2.r	2.r	2.r	2.r	2.r	2.r	2.r
.	.	.	8g#	8e	8d	.	.	.	.	.	.	.	.	.	.
.	.	.	4g#	8d	8B	2r	2r	.	.	.	.	.	.	.	.
.	.	.	.	8e	8d	.	.	.	.	.	.	.	.	.	.
.	.	.	4e	8d	8B	.	.	.	.	.	.	.	.	.	.
.	.	.	.	8e	8d	.	.	.	.	.	.	.	.	.	.
=78	=78	=78	=78	=78	=78	=78	=78	=78	=78	=78	=78	=78	=78	=78	=78
2.r	2.r	2.r	8a	8c#	8A	4AA	4AA	2.r	2.r	2.r	2.r	2.r	2.r	2.r	2.r
.	.	.	8g#	8e	8c#	.	.	.	.	.	.	.	.	.	.
.	.	.	8a	8c#	8A	2r	2r	.	.	.	.	.	.	.	.
.	.	.	8b	8e	8c#	.	.	.	.	.	.	.	.	.	.
.	.	.	8cc#	8c#	8A	.	.	.	.	.	.	.	.	.	.
.	.	.	8dd	8e	8c#	.	.	.	.	.	.	.	.	.	.
=79	=79	=79	=79	=79	=79	=79	=79	=79	=79	=79	=79	=79	=79	=79	=79
2.r	2.r	2.r	4b	8d	8G#	4E	4E	2.r	2.r	2.r	2.r	2.r	2.r	2.r	2.r
.	.	.	.	8e	8d	.	.	.	.	.	.	.	.	.	.
.	.	.	4e	8d	8B	2r	2r	.	.	.	.	.	.	.	.
.	.	.	.	8e	8d	.	.	.	.	.	.	.	.	.	.
.	.	.	8ff#	8d	8G#	.	.	.	.	.	.	.	.	.	.
.	.	.	8ee	8e	8B	.	.	.	.	.	.	.	.	.	.
=80	=80	=80	=80	=80	=80	=80	=80	=80	=80	=80	=80	=80	=80	=80	=80
2.r	2.r	2.r	2ee	8c#	8A	4AA	4AA	2.r	2.r	2.r	2.r	2.r	2.r	2.r	2.r
.	.	.	.	8e	8c#	.	.	.	.	.	.	.	.	.	.
.	.	.	.	8c#	8A	2r	2r	.	.	.	.	.	.	.	.
.	.	.	.	8e	8c#	.	.	.	.	.	.	.	.	.	.
.	.	.	8cc#	8c#	8A	.	.	.	.	.	.	.	.	.	.
.	.	.	8a	8e	8c#	.	.	.	.	.	.	.	.	.	.
=81	=81	=81	=81	=81	=81	=81	=81	=81	=81	=81	=81	=81	=81	=81	=81
2.r	2.r	2.r	8a	8d	8B	4E	4E	2.r	2.r	2.r	2.r	2.r	2.r	2.r	2.r
.	.	.	8g#	8e	8d	.	.	.	.	.	.	.	.	.	.
.	.	.	4g#	8d	8B	2r	2r	.	.	.	.	.	.	.	.
.	.	.	.	8e	8d	.	.	.	.	.	.	.	.	.	.
.	.	.	4e	8d	8B	.	.	.	.	.	.	.	.	.	.
.	.	.	.	8e	8d	.	.	.	.	.	.	.	.	.	.
=82	=82	=82	=82	=82	=82	=82	=82	=82	=82	=82	=82	=82	=82	=82	=82
2.r	2.r	2.r	8a	8c#	8A	4AA	4AA	2.r	2.r	2.r	2.r	2.r	2.r	2.r	2.r
.	.	.	8g#	8e	8c#	.	.	.	.	.	.	.	.	.	.
.	.	.	8a	8c#	8e	4r	4r	.	.	.	.	.	.	.	.
.	.	.	8cc#	8e	8A	.	.	.	.	.	.	.	.	.	.
.	.	.	8b	8d	8G#	4E	4E	.	.	.	.	.	.	.	.
.	.	.	8g#	8B	8B	.	.	.	.	.	.	.	.	.	.
=83	=83	=83	=83	=83	=83	=83	=83	=83	=83	=83	=83	=83	=83	=83	=83
8r	2.r	2.r	8a	4c#	4A	4AA	4AA	2.r	2.r	2.r	2.r	2.r	2.r	2.r	2.r
8a	.	.	8A	.	.	.	.	.	.	.	.	.	.	.	.
8b	.	.	8B	2r	2r	2r	2r	.	.	.	.	.	.	.	.
8cc#	.	.	8c#	.	.	.	.	.	.	.	.	.	.	.	.
8dd	.	.	8d	.	.	.	.	.	.	.	.	.	.	.	.
8ee	.	.	8e	.	.	.	.	.	.	.	.	.	.	.	.
=84	=84	=84	=84	=84	=84	=84	=84	=84	=84	=84	=84	=84	=84	=84	=84
8ff#	2.r	2.r	8f#	2.r	2.r	2.r	2.r	2.r	2.r	2.r	2.r	2.r	2.r	2.r	2.r
8gg#	.	.	8g#	.	.	.	.	.	.	.	.	.	.	.	.
8aa	.	.	8a	.	.	.	.	.	.	.	.	.	.	.	.
8bb	.	.	8b	.	.	.	.	.	.	.	.	.	.	.	.
8ccc#	.	.	8cc#	.	.	.	.	.	.	.	.	.	.	.	.
8ddd	.	.	8dd	.	.	.	.	.	.	.	.	.	.	.	.
=85	=85	=85	=85	=85	=85	=85	=85	=85	=85	=85	=85	=85	=85	=85	=85
2eee	2.r	2.r	2ee	4r	4r	4AA	4AA	2.r	2.r	2.r	8c#	8A	2.r	2.r	2.r
.	.	.	.	.	.	.	.	.	.	.	8e	8c#	.	.	.
.	.	.	.	4c#	4A	2r	2r	.	.	.	8c#	8A	.	.	.
.	.	.	.	.	.	.	.	.	.	.	8e	8c#	.	.	.
8ccc#	.	.	8cc#	4c#	4A	.	.	.	.	.	8c#	8A	.	.	.
8aa	.	.	8a	.	.	.	.	.	.	.	8e	8c#	.	.	.
=86	=86	=86	=86	=86	=86	=86	=86	=86	=86	=86	=86	=86	=86	=86	=86
8aa	2.r	2.r	8a	4r	4r	2d	4E	2.r	2.r	2.r	8d	8B	2.r	2.r	2.r
8gg#	.	.	8g#	.	.	.	.	.	.	.	8e	8d	.	.	.
4gg#	.	.	4g#	4d	4B	.	2r	.	.	.	8d	8B	.	.	.
.	.	.	.	.	.	.	.	.	.	.	8e	8d	.	.	.
4ee	.	.	4e	4d	4G#	8B	.	.	.	.	8d	8B	.	.	.
.	.	.	.	.	.	8G#	.	.	.	.	8e	8G#	.	.	.
=87	=87	=87	=87	=87	=87	=87	=87	=87	=87	=87	=87	=87	=87	=87	=87
8aa	2.r	2.r	8a	4r	4r	4A	4AA	2.r	2.r	2.r	8c#	8A	2.r	2.r	2.r
8gg#	.	.	8g#	.	.	.	.	.	.	.	8e	8c#	.	.	.
8aa	.	.	8a	4c#	4A	2r	2r	.	.	.	8c#	8A	.	.	.
8bb	.	.	8b	.	.	.	.	.	.	.	8e	8c#	.	.	.
8ccc#	.	.	8cc#	4c#	4A	.	.	.	.	.	8c#	8A	.	.	.
8ddd	.	.	8dd	.	.	.	.	.	.	.	8e	8c#	.	.	.
=88	=88	=88	=88	=88	=88	=88	=88	=88	=88	=88	=88	=88	=88	=88	=88
4bb	2.r	2.r	4b	4r	4r	4E	4E	2r	2r	2r	8d	8B	2.r	2.r	2.r
.	.	.	.	.	.	.	.	.	.	.	8e	8d	.	.	.
4ee	.	.	4e	4g#	4B	4r	4r	.	.	.	8d	8B	.	.	.
.	.	.	.	.	.	.	.	.	.	.	8e	8d	.	.	.
8ff#	.	.	8ff#	8g#	8d	8d	8d	8ff#	8ff#	8g#	8d	8B	.	.	.
8ee	.	.	8ee	8a	8c#	8c#	8c#	8ee	8ee	8a	8e	8d	.	.	.
=89	=89	=89	=89	=89	=89	=89	=89	=89	=89	=89	=89	=89	=89	=89	=89
4ee	2.r	2.r	4ee	4a	4c#	4c#	4c#	4ee	4ee	4a	4c#	4A	2.r	2.r	2.r
4r	.	.	2aa 2a	4r	4r	4r	4r	4r	2aa	2a	4r	4r	.	.	.
8ff#	.	.	.	8f# 8A	8d	8d	8d	8ff#	.	.	8f#	8d	.	.	.
8ee	.	.	.	8e	8c#	8c#	8c#	8ee	.	.	8e	8c#	.	.	.
=90	=90	=90	=90	=90	=90	=90	=90	=90	=90	=90	=90	=90	=90	=90	=90
4ee	2.r	2.r	4r	4e 4A	4c#	4c#	4c#	4ee	4r	4r	4e	4c#	2.r	2.r	2.r
4r	.	.	2aa 2a	4r	4r	4r	4r	4r	2aa	2a	4r	4r	.	.	.
8ff#	.	.	.	8A 8f#	8d	8d	8d	8ff#	.	.	8f#	8d	.	.	.
8ee	.	.	.	8e	8c#	8c#	8c#	8ee	.	.	8e	8c#	.	.	.
=91	=91	=91	=91	=91	=91	=91	=91	=91	=91	=91	=91	=91	=91	=91	=91
4ee	2.r	2.r	4r	4e	4c#	4c#	4c#	4ee	4r	4r	4e	4c#	2.r	2.r	2.r
4r	.	.	2aa#	4r	4r	4r	4r	4r	2aa#	2a#	4r	4r	.	.	.
8gg	.	.	.	8g	8d	8e	8e	8gg	.	.	8g	8e	.	.	.
8ff#	.	.	.	8f#	8c#	8d	8d	8ff#	.	.	8f#	8d	.	.	.
=92	=92	=92	=92	=92	=92	=92	=92	=92	=92	=92	=92	=92	=92	=92	=92
8ff#	2.r	2.r	4bb	4f#	4d	4d	4d	8ff#	8bb	8b	4f#	4d	2.r	2.r	2.r
8r	.	.	.	.	.	.	.	8r	8r	8r	.	.	.	.	.
8ee	.	.	4ccc#	4e	4e	4c#	4c#	8ee	8ccc#	8cc#	4e	4c#	.	.	.
8r	.	.	.	.	.	.	.	8r	8r	8r	.	.	.	.	.
8dd	.	.	4ddd	4d	4f#	4B	4B	8dd	8ddd	8dd	4d	4B	.	.	.
8r	.	.	.	.	.	.	.	8r	8r	8r	.	.	.	.	.
=93	=93	=93	=93	=93	=93	=93	=93	=93	=93	=93	=93	=93	=93	=93	=93
4cc#	2.r	2.r	4aa	4c#	4e	4e	4e	4cc#	4aa	4cc#	4c#	4A	2.r	2.r	2.r
2r	.	.	2r	2r	2r	2r	2r	2r	2r	2r	2r	2r	.	.	.
=94	=94	=94	=94	=94	=94	=94	=94	=94	=94	=94	=94	=94	=94	=94	=94
4gg#	2.r	2.r	4gg# 4b	4B 4d	4e	4E	4E	4gg#	4gg#	4b	4E	4E	2.r	2.r	2.r
2r	.	.	2r	2r	2r	2r	2r	2r	2r	2r	2r	2r	.	.	.
=95	=95	=95	=95	=95	=95	=95	=95	=95	=95	=95	=95	=95	=95	=95	=95
4aa	4g	4AA	8aa	8c#	8a	8A	8A	4aa	4aa	4a	4AA	4AA	4gg	4g	4g
.	.	.	8A	8A	8A	8AA	8AA	.	.	.	.	.	.	.	.
2r	2r	2r	8B	8B	8B	8BB	8BB	2r	2r	2r	2r	2r	2r	2r	2r
.	.	.	8c#	8c#	8c#	8C#	8C#	.	.	.	.	.	.	.	.
.	.	.	8d	8d	8d	8D	8D	.	.	.	.	.	.	.	.
.	.	.	8c#	8c#	8c#	8C#	8C#	.	.	.	.	.	.	.	.
=96	=96	=96	=96	=96	=96	=96	=96	=96	=96	=96	=96	=96	=96	=96	=96
4aa	4g	4AA	8d	8d	8d	8D	8D	4aa	4aa	4a	4AA	4AA	4gg	4g	4g
.	.	.	8e	8e	8e	8E	8E	.	.	.	.	.	.	.	.
2r	2r	2r	8f#	8f#	8f#	8F#	8F#	2r	2r	2r	2r	2r	2r	2r	2r
.	.	.	8e	8e	8e	8E	8E	.	.	.	.	.	.	.	.
.	.	.	8f#	8f#	8f#	8F#	8F#	.	.	.	.	.	.	.	.
.	.	.	8g#	8g#	8g#	8G#	8G#	.	.	.	.	.	.	.	.
=97	=97	=97	=97	=97	=97	=97	=97	=97	=97	=97	=97	=97	=97	=97	=97
4aa	4g	4AA	8a	8a	8a	8A	8A	4aa	4aa	4a	4AA	4AA	4gg	4g	4g
.	.	.	8g#	8g#	8G#	8G#	8G#	.	.	.	.	.	.	.	.
2r	2r	2r	8a	8a	8A	8A	8A	2r	2r	2r	2r	2r	2r	2r	2r
.	.	.	8b	8b	8B	8B	8B	.	.	.	.	.	.	.	.
.	.	.	8cc#	8cc#	8c#	8c#	8c#	.	.	.	.	.	.	.	.
.	.	.	8b	8b	8B	8B	8B	.	.	.	.	.	.	.	.
=98	=98	=98	=98	=98	=98	=98	=98	=98	=98	=98	=98	=98	=98	=98	=98
4aa	4g	4AA	8cc#	8cc#	8c#	8c#	8c#	4aa	4aa	4a	4AA	4AA	4gg	4g	4g
.	.	.	8dd	8dd	8d	8d	8d	.	.	.	.	.	.	.	.
2r	2r	2r	8ee	8ee	8e	8e	8e	2r	2r	2r	2r	2r	2r	2r	2r
.	.	.	8dd#	8dd#	8d#	8d#	8d#	.	.	.	.	.	.	.	.
.	.	.	8ee	8ee	8e	8e	8e	.	.	.	.	.	.	.	.
.	.	.	8ff#	8ff#	8f#	8f#	8f#	.	.	.	.	.	.	.	.
=99	=99	=99	=99	=99	=99	=99	=99	=99	=99	=99	=99	=99	=99	=99	=99
4aa	4g	4AA	8ee	8ee	8e	8e	8e	4aa	4aa	4a	4AA	4AA	4gg	4g	4g
.	.	.	8dd#	8dd#	8d#	8d#	8d#	.	.	.	.	.	.	.	.
2r	2r	2r	8ee	8ee	8e	8e	8e	2r	2r	2r	2r	2r	2r	2r	2r
.	.	.	8ff#	8ff#	8f#	8f#	8f#	.	.	.	.	.	.	.	.
.	.	.	8ee	8ee	8e	8e	8e	.	.	.	.	.	.	.	.
.	.	.	8dd#	8dd#	8d#	8d#	8d#	.	.	.	.	.	.	.	.
=100	=100	=100	=100	=100	=100	=100	=100	=100	=100	=100	=100	=100	=100	=100	=100
4aa	4g	4AA	8ee	8ee	8e	8e	8e	4aa	4aa	4a	4AA	4AA	4gg	4g	4g
.	.	.	8dd#	8dd#	8d#	8d#	8d#	.	.	.	.	.	.	.	.
2r	2r	2r	8ee	8ee	8e	8e	8e	2r	2r	2r	2r	2r	2r	2r	2r
.	.	.	8ff#	8ff#	8f#	8f#	8f#	.	.	.	.	.	.	.	.
.	.	.	8ee	8ee	8e	8e	8e	.	.	.	.	.	.	.	.
.	.	.	8gg#	8gg#	8d	8d	8d	.	.	.	.	.	.	.	.
=101	=101	=101	=101	=101	=101	=101	=101	=101	=101	=101	=101	=101	=101	=101	=101
8aa	2g	4AA	8aa	8aa	8c#	8c#	8c#	8aa	2aa	8a	8c#	8c#	2gg	2g	2g
8ccc#	.	.	8ccc#	8ccc#	8a	8A	8A	8ccc#	.	8cc#	8A	8A	.	.	.
8aa	.	2r	8aa	8ee	8c#	8c#	8c#	8aa	.	4ee	8c#	8c#	.	.	.
8ccc#	.	.	8ccc#	8ee	8a	8A	8A	8ccc#	.	.	8A	8A	.	.	.
8bb	4dd	.	8bb	8ee	8g#	8G#	8G#	8bb	4bb	8b	8G#	8G#	4dd	4dd	4dd
8eee	.	.	8eee	8ee	8b	8E	8E	8eee	.	8dd	8E	8E	.	.	.
=102	=102	=102	=102	=102	=102	=102	=102	=102	=102	=102	=102	=102	=102	=102	=102
8aa	2g	4AA	8aa	8aa	8cc#	8c#	8c#	8aa	2aa	4cc#	8c#	8c#	2gg	2g	2g
8ccc#	.	.	8ccc#	8ccc#	8a	8A	8A	8ccc#	.	.	8A	8A	.	.	.
8aa	.	2r	8aa	8ee	8cc#	8c#	8c#	8aa	.	4ee	8c#	8c#	.	.	.
8ccc#	.	.	8ccc#	8ee	8a	8A	8A	8ccc#	.	.	8A	8A	.	.	.
8bb	4dd	.	8bb	8ee	8g#	8G#	8G#	8bb	4bb	8b	8G#	8G#	4dd	4dd	4dd
8eee	.	.	8eee	8ee	8b	8E	8E	8eee	.	8dd	8E	8E	.	.	.
=103	=103	=103	=103	=103	=103	=103	=103	=103	=103	=103	=103	=103	=103	=103	=103
8aa	2g	4AA	8aa	8aa	8cc#	8c#	8c#	8aa	2aa	4cc#	8c#	8c#	2gg	2g	2gg
8ccc#	.	.	8ccc#	8ccc#	8a	8A	8A	8ccc#	.	.	8A	8A	.	.	.
8aa	.	4r	8aa	8ee	8cc#	8c#	8c#	8aa	.	4ee	8c#	8c#	.	.	.
8ccc#	.	.	8ccc#	8ee	8a	8A	8A	8ccc#	.	.	8A	8A	.	.	.
8ff#	4cc	4D	8ff#	8ff#	8dd	8d	8d	8ff#	4ff#	4dd	8d	8d	4ee	4cc	4ee
8ddd	.	.	8ddd	8dd	8d	8D	8D	8ddd	.	.	8D	8D	.	.	.
=104	=104	=104	=104	=104	=104	=104	=104	=104	=104	=104	=104	=104	=104	=104	=104
8ee	2.dd	4AA	8cc#	8cc#	8e	4E	4E	8ee	4ee	4cc#	4E	4E	[2.dd	2.dd	[2.dd
8ccc#	.	.	8dd	8ee	8e	.	.	8ccc#	.	.	.	.	.	.	.
8dd	.	2r	8ee	8b	8e	4E	4E	8dd	4dd	4b	4E	4E	.	.	.
8bb	.	.	8dd#	8dd	8e	.	.	8bb	.	.	.	.	.	.	.
8b	.	.	8ee	8g#	8e	4E	4E	8b	4b	4g#	4E	4E	.	.	.
8gg#	.	.	8gg#	8b	8e	.	.	8gg#	.	.	.	.	.	.	.
=105	=105	=105	=105	=105	=105	=105	=105	=105	=105	=105	=105	=105	=105	=105	=105
8aa	4g	4AA	8aa	8cc#	8a	4AA	4AA	8aa	4a	4a	4AA	4AA	4dd]	4g	4dd]
8r	.	.	8r	8e	8e	.	.	8r	.	.	.	.	.	.	.
8eee	4r	2r	8eee	8cc#	8a	4r	4r	8eee	4r	4r	4r	4r	4r	4r	4r
8r	.	.	8r	8e	8e	.	.	8r	.	.	.	.	.	.	.
8gg#	4dd	.	8gg# 8b	8dd	8b	4E	4E	8gg#	4gg#	4b	4E	4E	4dd	4dd	4dd
8r	.	.	8r	8e	8e	.	.	8r	.	.	.	.	.	.	.
=106	=106	=106	=106	=106	=106	=106	=106	=106	=106	=106	=106	=106	=106	=106	=106
8aa	4dd	4AA	8aa 8cc#	8cc#	8cc#	4AA	4AA	8aa	4aa	4cc#	4AA	4AA	4gg	4g	4dd
8r	.	.	8r	8e	8e	.	.	8r	.	.	.	.	.	.	.
8eee	4r	2r	8eee	8cc#	8a	4r	4r	8eee	4r	4r	4r	4r	4r	4r	4r
8r	.	.	8r	8e	8e	.	.	8r	.	.	.	.	.	.	.
8gg#	4dd	.	8b 8gg#	8dd	8b	4E	4E	8gg#	4gg#	4b	4E	4E	4dd	4dd	4dd
8r	.	.	8r	8e	8e	.	.	8r	.	.	.	.	.	.	.
=107	=107	=107	=107	=107	=107	=107	=107	=107	=107	=107	=107	=107	=107	=107	=107
4aa	4g	4AA	4aa 4a	4cc#	4cc#	4AA	4AA	4aa	4aa	4a	4AA	4AA	4gg	4g	4dd
4aa	4g	4AA	4a 4aa	4aa 4a	4a	4A	4A	4aa	4aa	4a	4A	4A	4gg	4g	4gg
4aa	4g	4AA	4aa 4a	4a 4aa	4a	4A	4A	4aa	4aa	4a	4A	4A	4gg	4g	4gg
=108	=108	=108	=108	=108	=108	=108	=108	=108	=108	=108	=108	=108	=108	=108	=108
4aa	4g	4AA	4aa 4a	4a 4aa	4a	4A	4A	4aa	4aa	4a	4A	4A	4gg	4g	4gg
4.bb	2r	2r	4.bb	4.bb	4.b	4.B	4.B	4.bb	4.bb	4.b	4.B	4.B	2r	2r	2r
8aa	.	.	8aa	8aa	8a	8A	8A	8aa	8aa	8a	8A	8A	.	.	.
=109	=109	=109	=109	=109	=109	=109	=109	=109	=109	=109	=109	=109	=109	=109	=109
8gg	2.r	2.r	8gg	8gg	8g	8G	8G	8gg	8gg	8g	8G	8G	2.r	2.r	2.r
8ff#	.	.	8ff#	8ff#	8f#	8F#	8F#	8ff#	8ff#	8f#	8F#	8F#	.	.	.
8ee	.	.	8ee	8ee	8e	8E	8E	8ee	8ee	8e	8E	8E	.	.	.
8dd	.	.	8dd	8dd	8d	8D	8D	8dd	8dd	8dd	8D	8D	.	.	.
8cc#	.	.	8cc#	8cc#	8c#	8C#	8C#	8cc#	8cc#	8cc#	8C#	8C#	.	.	.
8b	.	.	8b	8b	8B	8BB	8BB	8b	8b	8b	8BB	8BB	.	.	.
=110	=110	=110	=110	=110	=110	=110	=110	=110	=110	=110	=110	=110	=110	=110	=110
4a	4g	4AA	4a	4a	4A	4AA	4AA	4a	4a	8a	4AA	4AA	4gg	4g	4dd
.	.	.	.	.	.	.	.	.	.	8cc#	.	.	.	.	.
4gg	4g	4AA	4gg 4a	4ee 4cc#	4A	4AA	4AA	4gg	4gg	4ee	4AA	4AA	4gg	4g	4dd
4gg	4g	4AA	4gg 4a	4ee 4cc#	4A	4AA	4AA	4gg	4gg	4ee	4AA	4AA	4gg	4g	4dd
=111	=111	=111	=111	=111	=111	=111	=111	=111	=111	=111	=111	=111	=111	=111	=111
4gg	4g	4AA	4gg 4a	4ee 4cc#	4A	4AA	4AA	4gg	4gg	4ee	4AA	4AA	4gg	4g	4dd
2r	2r	2r	2r	2r	2r	2r	2r	2r	2r	2r	2r	2r	2r	2r	2r
=112	=112	=112	=112	=112	=112	=112	=112	=112	=112	=112	=112	=112	=112	=112	=112
2.r	2.r	2.r	2.r	2.r	2.r	2.r	2.r	2.r	2.r	2.r	2.r	2.r	2.r	2.r	2.r
=113	=113	=113	=113	=113	=113	=113	=113	=113	=113	=113	=113	=113	=113	=113	=113
4aa	4g	4AA	4aa 4a	4a 4aa	4a	4A	4A	4aa	4aa	4a	4A	4A	4gg	4g	4gg
4.ccc	2r	2r	4.ccc	4.ccc	4.cc	4.c	4.c	4.ccc	4.ccc	4.ccc	4.c	4.c	2r	2r	2r
8bb	.	.	8bb	8bb	8b	8B	8B	8bb	8bb	8bb	8B	8B	.	.	.
=114	=114	=114	=114	=114	=114	=114	=114	=114	=114	=114	=114	=114	=114	=114	=114
8aa	2.r	2.r	8aa	8aa	8a	8A	8A	8aa	8aa	8aa	8A	8A	2.r	2.r	2.r
8gg	.	.	8gg	8gg	8g	8G	8G	8gg	8gg	8gg	8G	8G	.	.	.
8ff#	.	.	8ff#	8ff#	8f#	8F#	8F#	8ff#	8ff#	8ff#	8F#	8F#	.	.	.
8ee	.	.	8ee	8ee	8e	8E	8E	8ee	8ee	8ee	8E	8E	.	.	.
8dd#	.	.	8dd#	8dd#	8d#	8D#	8D#	8dd#	8dd#	8dd#	8D#	8D#	.	.	.
8cc#	.	.	8cc#	8cc#	8c#	8C#	8C#	8cc#	8cc#	8cc#	8C#	8C#	.	.	.
=115	=115	=115	=115	=115	=115	=115	=115	=115	=115	=115	=115	=115	=115	=115	=115
4b	2.r	2.r	4b	[2.b	8B	8BB	8BB	4b	4b	[2.b	8BB	8BB	2.ee	2.ee	2.r
.	.	.	.	.	8c#	8C#	8C#	.	.	.	8C#	8C#	.	.	.
4bb	.	.	4bb	.	8d#	8D#	8D#	4bb	4bb	.	8D#	8D#	.	.	.
.	.	.	.	.	8B	8BB	8BB	.	.	.	8BB	8BB	.	.	.
4aa	.	.	4aa	.	8c#	8C#	8C#	4aa	4aa	.	8C#	8C#	.	.	.
.	.	.	.	.	8d#	8D#	8D#	.	.	.	8D#	8D#	.	.	.
=116	=116	=116	=116	=116	=116	=116	=116	=116	=116	=116	=116	=116	=116	=116	=116
4gg	2.r	2.r	4gg	4b]	8e	8E	8E	4gg	4gg	4b]	8E	8E	4dd	4dd	2.r
.	.	.	.	.	8d#	8D#	8D#	.	.	.	8D#	8D#	.	.	.
2r	.	.	4ee	4g	8e	8E	8E	2r	2r	2r	8E	8E	2r	2r	.
.	.	.	.	.	8f#	8F#	8F#	.	.	.	8F#	8F#	.	.	.
.	.	.	4ee	4g	8g	8G	8G	.	.	.	8G	8G	.	.	.
.	.	.	.	.	8f#	8F#	8F#	.	.	.	8F#	8F#	.	.	.
=117	=117	=117	=117	=117	=117	=117	=117	=117	=117	=117	=117	=117	=117	=117	=117
2.r	2.r	2.r	8ee	8g	8g	8G	8G	2.r	2.r	2.r	8G	8G	4r	4r	2.r
.	.	.	8dd#	8f#	8a	8A	8A	.	.	.	8A	8A	.	.	.
.	.	.	4dd#	4f#	8b	8B	8B	.	.	.	8B	8B	4gg	4ee	.
.	.	.	.	.	8a	8A	8A	.	.	.	8A	8A	.	.	.
.	.	.	4r	4r	8b	8B	8B	.	.	.	8B	8B	4gg	4ee	.
.	.	.	.	.	8cc	8c	8c	.	.	.	8c	8c	.	.	.
=118	=118	=118	=118	=118	=118	=118	=118	=118	=118	=118	=118	=118	=118	=118	=118
2.r	2.r	2.r	4r	4r	8d#	8D#	8D#	2.r	2.r	2.r	8D#	8D#	2.gg	2.ee	2.r
.	.	.	.	.	8cc	8c	8c	.	.	.	8c	8c	.	.	.
.	.	.	4ff#	4a	8b	8B	8B	.	.	.	8B	8B	.	.	.
.	.	.	.	.	8B	8BB	8BB	.	.	.	8BB	8BB	.	.	.
.	.	.	4ff#	4a	8c#	8C#	8C#	.	.	.	8C#	8C#	.	.	.
.	.	.	.	.	8d#	8D#	8D#	.	.	.	8D#	8D#	.	.	.
=119	=119	=119	=119	=119	=119	=119	=119	=119	=119	=119	=119	=119	=119	=119	=119
2.r	2.r	2.r	8ff#	8a	8e	8E	4E	2.r	2.r	2r	8E	8E	4ff	4dd	2.r
.	.	.	8ee	8g	8B	8B	.	.	.	.	8B	8B	.	.	.
.	.	.	4ee	4g	8c#	8c#	2r	.	.	.	8c#	8c#	2r	2r	.
.	.	.	.	.	8d#	8d#	.	.	.	.	8d#	8d#	.	.	.
.	.	.	4r	8r	8e	8e	.	.	.	8r	8e	8e	.	.	.
.	.	.	.	8f#	8d#	8d#	.	.	.	8f#	8d#	8d#	.	.	.
=120	=120	=120	=120	=120	=120	=120	=120	=120	=120	=120	=120	=120	=120	=120	=120
4r	2.r	2.r	4r	8a	8f#	8f#	2.r	4r	4r	8a	8f#	8f#	2.r	2.r	2.r
.	.	.	.	8g	8e	8e	.	.	.	8g	8e	8e	.	.	.
4bb	.	.	4bb	8b	8g	8g	.	4bb	4b	8b	8g	8g	.	.	.
.	.	.	.	8aa	8f#	8f#	.	.	.	8a	8f#	8f#	.	.	.
4bb	.	.	4bb	8gg	8e	8e	.	4bb	4b	8g	8e	8e	.	.	.
.	.	.	.	8ff#	8d	8d	.	.	.	8f#	8d	8d	.	.	.
=121	=121	=121	=121	=121	=121	=121	=121	=121	=121	=121	=121	=121	=121	=121	=121
8bb	2.r	2.r	8bb	8ee	8c#	8c#	2.r	8bb	8b	4e	8c#	8c#	2.r	2.r	2.r
8aa#	.	.	8aa#	8ff#	8d	8d	.	8aa#	8a#	.	8d	8d	.	.	.
4aa#	.	.	4aa#	8gg	8e	8e	.	4aa#	4a#	8gg	8e	8e	.	.	.
.	.	.	.	8ff#	8d	8d	.	.	.	8ff#	8d	8d	.	.	.
4r	.	.	4r	8ee	8c#	8c#	.	4r	4r	8ee	8c#	8c#	.	.	.
.	.	.	.	8dd	8B	8B	.	.	.	8dd	8B	8B	.	.	.
=122	=122	=122	=122	=122	=122	=122	=122	=122	=122	=122	=122	=122	=122	=122	=122
4r	2.r	2.r	4r	8cc#	8A#	8A#	4.r	4r	4r	8cc#	8A#	8A#	4r	4r	2.r
.	.	.	.	8dd	8B	8B	.	.	.	8dd	8B	8B	.	.	.
4ccc#	.	.	4ccc#	8ee	8c#	8c#	.	4ccc#	4cc#	8ee	8c#	8c#	4ee	4ee	.
.	.	.	.	8a#	8f#	8F#	8F#	.	.	8a#	8F#	8F#	.	.	.
4ccc#	.	.	4ccc#	8b	8g#	8G#	8G#	4ccc#	4cc#	8b	8G#	8G#	4ee	4ee	.
.	.	.	.	8cc#	8a#	8A#	8A#	.	.	8cc#	8A#	8A#	.	.	.
=123	=123	=123	=123	=123	=123	=123	=123	=123	=123	=123	=123	=123	=123	=123	=123
8ccc#	2.r	2.r	8ccc#	8dd	8b	8B	8B	8ccc#	8cc#	8dd	8B	8B	2ee	2ee	2.r
8bb	.	.	8bb	8ee	8cc#	8c#	8c#	8bb	8b	8ee	8c#	8c#	.	.	.
4bb	.	.	4bb	8ff#	8dd	8d	8d	4bb	4b	8ff#	8d	8d	.	.	.
.	.	.	.	8ee	8cc#	8c#	8c#	.	.	8ee	8c#	8c#	.	.	.
4r	.	.	4r	8dd	8b	8B	8B	4r	4r	8dd	8B	8B	4r	4r	.
.	.	.	.	8cc#	8a	8A	8A	.	.	8cc#	8A	8A	.	.	.
=124	=124	=124	=124	=124	=124	=124	=124	=124	=124	=124	=124	=124	=124	=124	=124
4r	2.r	2.r	4r	8b	8g	8G	8G	4r	4r	8b	8G	8G	4r	4r	2.r
.	.	.	.	8cc#	8a	8A	8A	.	.	8cc#	8A	8A	.	.	.
4ddd	.	.	4ddd	8dd	8b	8B	8B	4ddd	4dd	8dd	8B	8B	4cc	4cc	.
.	.	.	.	8cc#	8a	8A	8A	.	.	8cc#	8A	8A	.	.	.
4ddd	.	.	4ddd	8b	8g	8G	8G	4ddd	4dd	8b	8G	8G	4cc	4cc	.
.	.	.	.	8a	8f#	8F#	8F#	.	.	8a	8F#	8F#	.	.	.
=125	=125	=125	=125	=125	=125	=125	=125	=125	=125	=125	=125	=125	=125	=125	=125
8ddd	2.r	2.r	8ddd	8g	8e	8E	8E	8ddd	8dd	8g	8E	8E	8cc	8cc	2.r
8ccc#	.	.	8ccc#	8a	8f#	8F#	8F#	8ccc#	8cc#	8a	8F#	8F#	8dd	8dd	.
4ccc#	.	.	4ccc#	8b	8g	8G	8G	4ccc#	4cc#	8b	8G	8G	4dd	4dd	.
.	.	.	.	8a	8f#	8F#	8F#	.	.	8a	8F#	8F#	.	.	.
16eee	.	.	16eee	8g	8e	8E	8E	16eee	16ee	8g	8E	8E	4r	4r	.
16ddd	.	.	16ddd	.	.	.	.	16ddd	16dd	.	.	.	.	.	.
16ccc#	.	.	16ccc#	8f#	8d	8D	8D	16ccc#	16cc#	8f#	8D	8D	.	.	.
16ddd	.	.	16ddd	.	.	.	.	16ddd	16dd	.	.	.	.	.	.
=126	=126	=126	=126	=126	=126	=126	=126	=126	=126	=126	=126	=126	=126	=126	=126
4eee	2.g	4AA	4eee	8e	8c#	8C#	8C#	4eee	4ee	4e	8C#	8C#	2.dd	2.g	2.dd
.	.	.	.	8f#	8d	8D	8D	.	.	.	8D	8D	.	.	.
4gg	.	8AA	4gg	8g	8e	8E	8E	4gg	4gg	4cc#	8E	8E	.	.	.
.	.	8AA	.	8c#	8A	8AA	8AA	.	.	.	8AA	8AA	.	.	.
4gg	.	8AA	4gg	8d	8B	8BB	8BB	4gg	4gg	4cc#	8BB	8BB	.	.	.
.	.	8AA	.	8e	8c#	8C#	8C#	.	.	.	8C#	8C#	.	.	.
=127	=127	=127	=127	=127	=127	=127	=127	=127	=127	=127	=127	=127	=127	=127	=127
4ff#	4cc	4D	4ff#	4f#	4d	4D	4D	4ff#	4ff#	4dd	4D	4D	4ee	4cc	4ee
2r	2r	2r	4dd	4a	4f#	4f#	2r	2r	2r	2r	2r	2r	2r	2r	2r
.	.	.	4dd	4a	4f#	4f#	.	.	.	.	.	.	.	.	.
=128	=128	=128	=128	=128	=128	=128	=128	=128	=128	=128	=128	=128	=128	=128	=128
2.r	2.r	2.r	8dd	8a	8f#	8f#	2.r	2.r	4r	4r	2.r	2.r	2.r	2.r	2.r
.	.	.	8cc#	8g	8e	8e	.	.	.	.	.	.	.	.	.
.	.	.	4cc#	4g	4e	4e	.	.	4ee	4cc#	.	.	.	.	.
.	.	.	4r	4r	4r	4r	.	.	4ee	4cc#	.	.	.	.	.
=129	=129	=129	=129	=129	=129	=129	=129	=129	=129	=129	=129	=129	=129	=129	=129
2.r	2.r	2.r	4r	4r	4r	4r	2.r	2.r	8ee	8cc#	2.r	2.r	2.r	2.r	2.r
.	.	.	.	.	.	.	.	.	8ff#	8dd	.	.	.	.	.
.	.	.	4b	4f#	4d	4d	.	.	4ff#	4dd	.	.	.	.	.
.	.	.	4b	4f#	4d	4d	.	.	4r	4r	.	.	.	.	.
=130	=130	=130	=130	=130	=130	=130	=130	=130	=130	=130	=130	=130	=130	=130	=130
4r	2.r	2.r	8b	8f#	8d	8d	2.r	4r	2.r	2.r	2.r	2.r	2.r	2.r	2.r
.	.	.	8a#	8e	8c#	8c#	.	.	.	.	.	.	.	.	.
4ccc#	.	.	4a#	4e	4c#	4c#	.	4aa#	.	.	.	.	.	.	.
4ccc#	.	.	4r	4r	4r	4r	.	4aa#	.	.	.	.	.	.	.
=131	=131	=131	=131	=131	=131	=131	=131	=131	=131	=131	=131	=131	=131	=131	=131
8ccc#	2.r	2.r	4r	4r	4r	4r	2.r	8aa#	2.r	2.r	2.r	2.r	2.r	2.r	2.r
8ddd	.	.	.	.	.	.	.	8bb	.	.	.	.	.	.	.
4ddd	.	.	4g	4d	4B	4B	.	4bb	.	.	.	.	.	.	.
4r	.	.	4g	4d	4B	4B	.	4r	.	.	.	.	.	.	.
=132	=132	=132	=132	=132	=132	=132	=132	=132	=132	=132	=132	=132	=132	=132	=132
2.r	2.r	2.r	8g	8d	8B	8B	4.r	2.r	4r	4r	4r	4r	2.r	2.r	2.r
.	.	.	8f#	8c	8A	8A	.	.	.	.	.	.	.	.	.
.	.	.	4f#	4c	8A	8A	.	.	4aa	4ff#	4c	4c	.	.	.
.	.	.	.	.	8f#	8D	8D	.	.	.	.	.	.	.	.
.	.	.	4r	4r	8g	8E	8E	.	4aa	4ff#	4c	4c	.	.	.
.	.	.	.	.	8a	8F#	8F#	.	.	.	.	.	.	.	.
=133	=133	=133	=133	=133	=133	=133	=133	=133	=133	=133	=133	=133	=133	=133	=133
4.r	2.r	2.r	4.r	4.r	8b	8G	8G	4.r	8aa	8ff#	8c	8c	2.r	2.r	2.r
.	.	.	.	.	8a	8F#	8F#	.	8bb	8gg	8B	8B	.	.	.
.	.	.	.	.	8g	8E	8E	.	4bb	4gg	4B	4B	.	.	.
8g	.	.	8g	8G	8f#	8D	8D	8g	.	.	.	.	.	.	.
8a	.	.	8a	8A	8e	8C	8C	8a	4r	4r	4r	4r	.	.	.
8b	.	.	8b	8B	8d	8BB	8BB	8b	.	.	.	.	.	.	.
=134	=134	=134	=134	=134	=134	=134	=134	=134	=134	=134	=134	=134	=134	=134	=134
8cc	2.r	2.r	8cc	8c	4c	4AA	4AA	8cc	2.r	2.r	4r	4r	2.r	2.r	2.r
8b	.	.	8b	8B	.	.	.	8b	.	.	.	.	.	.	.
8cc	.	.	8cc	8c	4cc	4C	4C	8cc	.	.	4C	4C	.	.	.
8dd	.	.	8dd	8d	.	.	.	8dd	.	.	.	.	.	.	.
8ee	.	.	8ee	8e	4cc	4C	4C	8ee	.	.	4C	4C	.	.	.
8dd	.	.	8dd	8d	.	.	.	8dd	.	.	.	.	.	.	.
=135	=135	=135	=135	=135	=135	=135	=135	=135	=135	=135	=135	=135	=135	=135	=135
8ee	2.r	2.r	8ee	8e	8cc	8C	8C	8ee	2.r	2.r	8C	8C	2.r	2.r	2.r
8ff#	.	.	8ff#	8f#	8b	8BB	8BB	8ff#	.	.	8BB	8BB	.	.	.
8gg	.	.	8gg	8g	4b	4BB	4BB	8gg	.	.	4BB	4BB	.	.	.
8ff#	.	.	8ff#	8f#	.	.	.	8ff#	.	.	.	.	.	.	.
8gg	.	.	8gg	8g	4r	4r	4r	8gg	.	.	4r	4r	.	.	.
8aa	.	.	8aa	8a	.	.	.	8aa	.	.	.	.	.	.	.
=136	=136	=136	=136	=136	=136	=136	=136	=136	=136	=136	=136	=136	=136	=136	=136
8bb	2.r	2.r	8bb	8b	4r	4r	4r	8bb	2.r	2.r	4r	4r	2.r	2.r	2.r
8ccc	.	.	8ccc	8cc	.	.	.	8ccc	.	.	.	.	.	.	.
8ddd	.	.	8ddd	8dd	4f	4F	4F	8ddd	.	.	4F	4F	.	.	.
8ccc	.	.	8ccc	8cc	.	.	.	8ccc	.	.	.	.	.	.	.
8bb	.	.	8bb	8b	4f	4F	4F	8bb	.	.	4F	4F	.	.	.
8aa	.	.	8aa	8a	.	.	.	8aa	.	.	.	.	.	.	.
=137	=137	=137	=137	=137	=137	=137	=137	=137	=137	=137	=137	=137	=137	=137	=137
8gg#	2.r	2.r	8gg#	8g#	8f	8F	8F	8gg#	2.r	2.r	8F	8F	4r	4r	2.r
8aa	.	.	8aa	8a	8e	8E	8E	8aa	.	.	8E	8E	.	.	.
8bb	.	.	8bb	8b	4e	4E	4E	8bb	.	.	4E	4E	4dd	4dd	.
8ff	.	.	8ff	8f	.	.	.	8ff	.	.	.	.	.	.	.
8ee	.	.	8ee	8e	4r	4r	4r	8ee	.	.	4r	4r	4dd	4dd	.
8dd	.	.	8dd	8d	.	.	.	8dd	.	.	.	.	.	.	.
=138	=138	=138	=138	=138	=138	=138	=138	=138	=138	=138	=138	=138	=138	=138	=138
8cc	2.r	2.r	8cc	8c	4r	4r	4r	8cc	8r	2.r	4r	4r	4dd	4dd	2.r
8ee	.	.	8ee	8e	.	.	.	8ee	8ee	.	.	.	.	.	.
8aa	.	.	8aa	8a	4a	4A	4A	8aa	8cc	.	4A	4A	2r	2r	.
8bb	.	.	8bb	8b	.	.	.	8bb	8dd	.	.	.	.	.	.
8ccc	.	.	8ccc	8cc	4a	4A	4A	8ccc	8ee	.	4A	4A	.	.	.
8bb	.	.	8bb	8b	.	.	.	8bb	8dd	.	.	.	.	.	.
=139	=139	=139	=139	=139	=139	=139	=139	=139	=139	=139	=139	=139	=139	=139	=139
8ccc	2.r	2.r	8ccc	8cc	8a	8A	8A	8ccc	[2.ee	4r	8A	8A	2.r	2.r	2.r
8ddd	.	.	8ddd	8dd	8g#	8G#	8G#	8ddd	.	.	8G#	8G#	.	.	.
8eee	.	.	8eee	8ee	4g#	4G#	4G#	8eee	.	4b	4G#	4G#	.	.	.
8bb	.	.	8bb	8b	.	.	.	8bb	.	.	.	.	.	.	.
8eee	.	.	8eee	8ee	4g	4G	4G	8eee	.	4b	4G	4G	.	.	.
8bb	.	.	8bb	8b	.	.	.	8bb	.	.	.	.	.	.	.
=140	=140	=140	=140	=140	=140	=140	=140	=140	=140	=140	=140	=140	=140	=140	=140
8aa#	2.r	2.r	8aa#	8a#	8g	8G	8G	8aa#	2ee]	2a#	8G	8G	4r	4r	2.r
8bb	.	.	8bb	8b	8f#	8F#	8F#	8bb	.	.	8F#	8F#	.	.	.
8ccc#	.	.	8ccc#	8cc#	4f#	4F#	4F#	8ccc#	.	.	8F#	8F#	4ee	4ee	.
8gg	.	.	8gg	8g	.	.	.	8gg	.	.	8e	8e	.	.	.
8ff#	.	.	8ff#	8f#	4A#	4AA#	4AA#	8ff#	4cc#	4cc#	8d	8d	4ee	4ee	.
8ee	.	.	8ee	8e	.	.	.	8ee	.	.	8c#	8c#	.	.	.
=141	=141	=141	=141	=141	=141	=141	=141	=141	=141	=141	=141	=141	=141	=141	=141
4dd	2.r	2.r	4dd	8d	4B	4BB	4BB	4dd	4dd	4f#	4B	4B	[2.ee	[2.ee	2.r
.	.	.	.	8c#	.	.	.	.	.	.	.	.	.	.	.
4bb	.	.	2r	8B	2r	4B	2r	4bb	2r	4b	4B	4B	.	.	.
.	.	.	.	8f#	.	.	.	.	.	.	.	.	.	.	.
4ddd	.	.	.	8b	.	4B	.	4ddd	.	4dd	4B	4B	.	.	.
.	.	.	.	8dd	.	.	.	.	.	.	.	.	.	.	.
=142	=142	=142	=142	=142	=142	=142	=142	=142	=142	=142	=142	=142	=142	=142	=142
2ccc#	2.r	2.r	2.r	2cc#	8r	8B	2.r	2ccc#	8r	2cc#	8B	8B	2.ee_	2.ee_	2.r
.	.	.	.	.	8e	8A#	.	.	8ee	.	8A#	8A#	.	.	.
.	.	.	.	.	8f#	4A#	.	.	8ff#	.	4A#	4A#	.	.	.
.	.	.	.	.	8g	.	.	.	8gg	.	.	.	.	.	.
4aa#	.	.	.	8a#	8f#	4e	.	4aa#	8ff#	8a#	4e	4e	.	.	.
.	.	.	.	8f#	8A#	.	.	.	8a#	8f#	.	.	.	.	.
=143	=143	=143	=143	=143	=143	=143	=143	=143	=143	=143	=143	=143	=143	=143	=143
4ff#	2.r	2.r	4ff#	4ff#	2.B	8e	4BB	4ff#	4b	2.ff#	8e	8e	4ee]	4ee]	2.r
.	.	.	.	.	.	8d	.	.	.	.	8d	8d	.	.	.
4bb	.	.	4bb	4dd	.	4d	2r	4bb	2r	.	4d	4d	2r	2r	.
4ddd	.	.	4ddd	4b	.	4r	.	4ddd	.	.	4r	4r	.	.	.
=144	=144	=144	=144	=144	=144	=144	=144	=144	=144	=144	=144	=144	=144	=144	=144
2ccc#	2.r	2.r	2ccc#	8b	4r	2r	2r	2ccc#	2.r	4r	[2.f#	[2.f#	2.r	2.r	2.r
.	.	.	.	8a#	.	.	.	.	.	.	.	.	.	.	.
.	.	.	.	4a#	4e	.	.	.	.	4ee	.	.	.	.	.
8aa#	.	.	8aa#	4cc#	4e	4F#	4F#	8aa#	.	4ee	.	.	.	.	.
8ff#	.	.	8ff#	.	.	.	.	8ff#	.	.	.	.	.	.	.
=145	=145	=145	=145	=145	=145	=145	=145	=145	=145	=145	=145	=145	=145	=145	=145
2bb	2.r	2.r	2bb	8cc#	8e	4BB	4BB	2bb	2.r	8ee	2f#]	2f#]	2.r	2.r	2.r
.	.	.	.	8b	8d#	.	.	.	.	8dd#	.	.	.	.	.
.	.	.	.	4f#	4d#	4r	4r	.	.	4dd#	.	.	.	.	.
8gg#	.	.	8gg#	4b	4d	4E	4E	8gg#	.	4dd	4e	4e	.	.	.
8ee	.	.	8ee	.	.	.	.	8ee	.	.	.	.	.	.	.
=146	=146	=146	=146	=146	=146	=146	=146	=146	=146	=146	=146	=146	=146	=146	=146
4aa	2.r	2.r	4aa	8b	8d	4AA	4AA	4aa	4e	8dd	4e	4e	4r	4r	2.r
.	.	.	.	8a	8c#	.	.	.	.	8cc#	.	.	.	.	.
4aa	.	.	2r	4e	4c#	2r	2r	4aa	4a	4cc#	4c#	4c#	4dd	4dd	.
4ccc#	.	.	.	4e	4A	.	.	4ccc#	4cc#	4r	4A	4A	4dd	4dd	.
=147	=147	=147	=147	=147	=147	=147	=147	=147	=147	=147	=147	=147	=147	=147	=147
2bb	2.r	2.r	2.r	2.e	8A	2.r	2.r	2bb	2b	2.r	8A	8A	2.dd	2.dd	2.r
.	.	.	.	.	8G#	.	.	.	.	.	8G#	8G#	.	.	.
.	.	.	.	.	4G#	.	.	.	.	.	4G#	4G#	.	.	.
8gg#	.	.	.	.	4d	.	.	8gg#	8g#	.	4d	4d	.	.	.
8ee	.	.	.	.	.	.	.	8ee	8e	.	.	.	.	.	.
=148	=148	=148	=148	=148	=148	=148	=148	=148	=148	=148	=148	=148	=148	=148	=148
[2.eee	2.r	2.r	4ee	4A	8d	2.r	2.r	[2.eee	4ee	2.r	8d	8d	4gg	4g	2.r
.	.	.	.	.	8c#	.	.	.	.	.	8c#	8c#	.	.	.
.	.	.	4aa	4a	4c#	.	.	.	2r	.	4c#	4c#	2r	2r	.
.	.	.	4ccc#	4a	4r	.	.	.	.	.	4r	4r	.	.	.
=149	=149	=149	=149	=149	=149	=149	=149	=149	=149	=149	=149	=149	=149	=149	=149
2.eee_	2.r	2.r	2bb	8a	2.r	2.r	2.r	2.eee_	2.r	2.r	2.r	2.r	2.r	2.r	2.r
.	.	.	.	8g#	.	.	.	.	.	.	.	.	.	.	.
.	.	.	.	4g#	.	.	.	.	.	.	.	.	.	.	.
.	.	.	8gg#	4dd	.	.	.	.	.	.	.	.	.	.	.
.	.	.	8ee	.	.	.	.	.	.	.	.	.	.	.	.
=150	=150	=150	=150	=150	=150	=150	=150	=150	=150	=150	=150	=150	=150	=150	=150
2eee]	4r	4r	2eee	8dd	4r	4r	4r	2eee]	2.r	2.r	4r	4r	2.r	2.r	4r
.	.	.	.	8cc#	.	.	.	.	.	.	.	.	.	.	.
.	4g	4AA	.	8cc#	8A	4G	4G	.	.	.	4G	4G	.	.	4dd
.	.	.	.	8dd	8a	.	.	.	.	.	.	.	.	.	.
8ccc#	4g	4AA	8ccc#	8ee	8g	4G	4G	8ccc#	.	.	4G	4G	.	.	4dd
8aa	.	.	8aa	8cc#	8e	.	.	8aa	.	.	.	.	.	.	.
=151	=151	=151	=151	=151	=151	=151	=151	=151	=151	=151	=151	=151	=151	=151	=151
4ddd	2cc	4D	2ddd	[2.a	2.d	8G	8G	4ddd	4a	4a	8G	8G	4r	4r	2ee
.	.	.	.	.	.	8F#	8F#	.	.	.	8F#	8F#	.	.	.
2r	.	2r	.	.	.	4F#	4F#	2r	4dd	4dd	4F#	4F#	4ee	4cc	.
.	4r	.	4ff#	.	.	4d	4d	.	4ff#	4ff#	4d	4d	4ee	4cc	4r
=152	=152	=152	=152	=152	=152	=152	=152	=152	=152	=152	=152	=152	=152	=152	=152
2.r	2.r	2.r	4ee	4a]	8d	8d	8d	2.r	4ee	4ee	8d	8d	2dd	2g	2.r
.	.	.	.	.	8c#	8c#	8c#	.	.	.	8c#	8c#	.	.	.
.	.	.	4aa	8aa	4c#	4c#	4c#	.	4aa	2r	4c#	4c#	.	.	.
.	.	.	.	8gg	.	.	.	.	.	.	.	.	.	.	.
.	.	.	4aa	8ff#	4c	4c	4c	.	4aa	.	4c	4c	4r	4r	.
.	.	.	.	8ee	.	.	.	.	.	.	.	.	.	.	.
=153	=153	=153	=153	=153	=153	=153	=153	=153	=153	=153	=153	=153	=153	=153	=153
2.r	2.r	2.r	8aa	4dd	4B	4B	4B	2.r	8aa	2.r	4B	4B	2.r	2.r	2.r
.	.	.	8gg#	.	.	.	.	.	8gg#	.	.	.	.	.	.
.	.	.	4gg#	4r	4e	4e	4e	.	4gg#	.	4e	4e	.	.	.
.	.	.	4gg	[4b	4e	4e	4e	.	4gg	.	4e	4e	.	.	.
=154	=154	=154	=154	=154	=154	=154	=154	=154	=154	=154	=154	=154	=154	=154	=154
2.r	2.r	2.r	4ff#	4b]	8e	8e	8e	2.r	4ff#	4r	8e	8e	2.r	2.r	2.r
.	.	.	.	.	8d#	8d#	8d#	.	.	.	8d#	8d#	.	.	.
.	.	.	4bb	4ff#	4d#	4d#	4d#	.	4bb	4f#	4d#	4d#	.	.	.
.	.	.	4bb	4ff#	4d	4d	4d	.	4bb	4ff#	4d	4d	.	.	.
=155	=155	=155	=155	=155	=155	=155	=155	=155	=155	=155	=155	=155	=155	=155	=155
2.r	2.r	2.r	8bb	2ee	2c#	2c#	2c#	2.r	8bb	2ee	2c#	2c#	2.r	2.r	2.r
.	.	.	8aa#	.	.	.	.	.	8aa#	.	.	.	.	.	.
.	.	.	4aa#	.	.	.	.	.	4aa#	.	.	.	.	.	.
.	.	.	4gg	4dd	4B	4B	4B	.	4gg	4dd	4B	4B	.	.	.
=156	=156	=156	=156	=156	=156	=156	=156	=156	=156	=156	=156	=156	=156	=156	=156
2r	2.r	2.r	8gg	2cc#	2A#	2A#	2A#	2r	8gg	2.cc#	2A#	2A#	2r	2.r	2.r
.	.	.	8ff#	.	.	.	.	.	8ff#	.	.	.	.	.	.
.	.	.	4ff#	.	.	.	.	.	4ff#	.	.	.	.	.	.
4ee	.	.	4ee	4a#	4F#	4F#	4F#	4cc#	4ee	.	4F#	4F#	4cc	.	.
=157	=157	=157	=157	=157	=157	=157	=157	=157	=157	=157	=157	=157	=157	=157	=157
8ee	2r	2r	8ee	8a#	2G	2G	2G	8cc#	8ee	8cc#	2G	2G	4cc	2r	2r
8dd	.	.	8dd	8b	.	.	.	8b	8dd	8b	.	.	.	.	.
4dd	.	.	4dd	4b	.	.	.	4b	4dd	4b	.	.	2r	.	.
4ddd	4c	4D	4ddd	4bb	4G	4GG	4GG	4bb	4ddd	4bb	4GG	4GG	.	4c	4cc
=158	=158	=158	=158	=158	=158	=158	=158	=158	=158	=158	=158	=158	=158	=158	=158
4ddd	4c	4D	4ddd	4bb	4G	4GG	4GG	4bb	4ddd	4bb	4GG	4GG	4r	4c	4cc
4r	4r	4r	4r	4r	4r	4r	4r	4r	4r	4r	4r	4r	4r	4r	4r
4r	4r	4r	4ee	4cc#	4r	4r	4r	4r	4r	4r	4r	4r	4r	4r	4r
=159	=159	=159	=159	=159	=159	=159	=159	=159	=159	=159	=159	=159	=159	=159	=159
2.r	2.r	2.r	8ee	8cc#	2.r	2.r	2.r	2.r	2.r	2.r	2.r	2.r	2.r	2.r	2.r
.	.	.	8dd	8b	.	.	.	.	.	.	.	.	.	.	.
.	.	.	4dd	4b	.	.	.	.	.	.	.	.	.	.	.
.	.	.	4ddd	4bb	.	.	.	.	.	.	.	.	.	.	.
=160	=160	=160	=160	=160	=160	=160	=160	=160	=160	=160	=160	=160	=160	=160	=160
4r	4r	4r	4ddd	4bb	4r	4r	4r	4r	4r	4r	4r	4r	4r	4r	4r
4r	4r	4r	4r	4r	4r	4r	4r	4r	4r	4r	4r	4r	4r	4r	4r
4ee	4r	4r	4r	4r	4r	4r	4r	4cc#	4r	4r	4r	4r	4r	4r	4r
=161	=161	=161	=161	=161	=161	=161	=161	=161	=161	=161	=161	=161	=161	=161	=161
8ee	2.r	2.r	2.r	2.r	2.r	2.r	2.r	8cc#	2.r	2.r	2.r	2.r	2.r	2.r	2.r
8dd	.	.	.	.	.	.	.	8b	.	.	.	.	.	.	.
4dd	.	.	.	.	.	.	.	4b	.	.	.	.	.	.	.
4ddd	.	.	.	.	.	.	.	4bb	.	.	.	.	.	.	.
=162	=162	=162	=162	=162	=162	=162	=162	=162	=162	=162	=162	=162	=162	=162	=162
4ddd	2.r	2.r	8G	2.r	2.r	2.r	2.r	4bb	2.r	2.r	2.r	2.r	2.r	2.r	2.r
.	.	.	8B	.	.	.	.	.	.	.	.	.	.	.	.
4r	.	.	8d	.	.	.	.	4r	.	.	.	.	.	.	.
.	.	.	8g	.	.	.	.	.	.	.	.	.	.	.	.
4bb	.	.	8b	.	.	.	.	4gg	.	.	.	.	.	.	.
.	.	.	8r	.	.	.	.	.	.	.	.	.	.	.	.
=163	=163	=163	=163	=163	=163	=163	=163	=163	=163	=163	=163	=163	=163	=163	=163
4bb	2.r	2.r	8G	2.r	2.r	2.r	2.r	4gg	2.r	2.r	2.r	2.r	2.r	2.r	2.r
.	.	.	8B	.	.	.	.	.	.	.	.	.	.	.	.
4r	.	.	8d	.	.	.	.	4r	.	.	.	.	.	.	.
.	.	.	8g	.	.	.	.	.	.	.	.	.	.	.	.
4gg	.	.	8b	.	.	.	.	4b	.	.	.	.	.	.	.
.	.	.	8r	.	.	.	.	.	.	.	.	.	.	.	.
=164	=164	=164	=164	=164	=164	=164	=164	=164	=164	=164	=164	=164	=164	=164	=164
4gg	2.r	2.r	8G	2.r	2.r	2.r	2.r	4b	2.r	2.r	2.r	2.r	2.r	2.r	2.r
.	.	.	8B	.	.	.	.	.	.	.	.	.	.	.	.
4r	.	.	8d	.	.	.	.	4r	.	.	.	.	.	.	.
.	.	.	8g	.	.	.	.	.	.	.	.	.	.	.	.
4dd	.	.	8b	.	.	.	.	4b	.	.	.	.	.	.	.
.	.	.	8dd	.	.	.	.	.	.	.	.	.	.	.	.
=165	=165	=165	=165	=165	=165	=165	=165	=165	=165	=165	=165	=165	=165	=165	=165
2.dd	2.r	2.r	2ff	2.r	2.B	2.r	2.r	2.b	2r	2r	2.d	2.G	2.r	2.r	2.r
.	.	.	8aa	.	.	.	.	.	8aa	8aa	.	.	.	.	.
.	.	.	8gg	.	.	.	.	.	8gg	8gg	.	.	.	.	.
=166	=166	=166	=166	=166	=166	=166	=166	=166	=166	=166	=166	=166	=166	=166	=166
4ee	2.r	2.r	2gg	8e	8c	4C	4C	4cc	2gg	2gg	4e	4c	2.r	2.r	2.r
.	.	.	.	8g	8e	.	.	.	.	.	.	.	.	.	.
2r	.	.	.	8e	8c	2r	2r	2r	.	.	2r	2r	.	.	.
.	.	.	.	8g	8e	.	.	.	.	.	.	.	.	.	.
.	.	.	8ee	8e	8c	.	.	.	8ee	8ee	.	.	.	.	.
.	.	.	8cc	8g	8e	.	.	.	8cc	8cc	.	.	.	.	.
=167	=167	=167	=167	=167	=167	=167	=167	=167	=167	=167	=167	=167	=167	=167	=167
2.r	2.r	2.r	8cc	8f	8d	4G	4G	2.r	8cc	8cc	2.r	2.r	2.r	2.r	2.r
.	.	.	8b	8g	8f	.	.	.	8b	8b	.	.	.	.	.
.	.	.	4b	8f	8d	2r	2r	.	4b	4b	.	.	.	.	.
.	.	.	.	8g	8f	.	.	.	.	.	.	.	.	.	.
.	.	.	4g	8f	8d	.	.	.	4g	4g	.	.	.	.	.
.	.	.	.	8g	8f	.	.	.	.	.	.	.	.	.	.
=168	=168	=168	=168	=168	=168	=168	=168	=168	=168	=168	=168	=168	=168	=168	=168
2.r	2.r	2.r	8cc	8e	8c	4C	4C	2.r	8cc	8cc	2.r	2.r	2.r	2.r	2.r
.	.	.	8b	8g	8e	.	.	.	8b	8b	.	.	.	.	.
.	.	.	8cc	8e	8c	2r	2r	.	8cc	8cc	.	.	.	.	.
.	.	.	8dd	8g	8e	.	.	.	8dd	8dd	.	.	.	.	.
.	.	.	8ee	8e	8c	.	.	.	8ee	8ee	.	.	.	.	.
.	.	.	8ff	8g	8e	.	.	.	8ff	8ff	.	.	.	.	.
=169	=169	=169	=169	=169	=169	=169	=169	=169	=169	=169	=169	=169	=169	=169	=169
2ee	2.r	2.r	2gg	8e	8c#	2.AA	2.AA	2ee	2gg	2.cc#	2.c#	2.E	2.r	2.r	2.r
.	.	.	.	8g	8e	.	.	.	.	.	.	.	.	.	.
.	.	.	.	8e	8c#	.	.	.	.	.	.	.	.	.	.
.	.	.	.	8g	8e	.	.	.	.	.	.	.	.	.	.
4gg	.	.	8ee	8e	8c#	.	.	4gg	8ee	.	.	.	.	.	.
.	.	.	8cc#	8g	8e	.	.	.	8cc#	.	.	.	.	.	.
=170	=170	=170	=170	=170	=170	=170	=170	=170	=170	=170	=170	=170	=170	=170	=170
4ff#	2.r	2.r	8dd	8f#	8d	4D	4D	4ff#	8dd	4dd	4d	4F#	2.r	2.r	2.r
.	.	.	8cc#	8d	8A	.	.	.	8cc#	.	.	.	.	.	.
2r	.	.	8dd	8f#	8d	2r	2r	2r	8dd	2r	2r	2r	.	.	.
.	.	.	8ee	8d	8A	.	.	.	8ee	.	.	.	.	.	.
.	.	.	8ff#	8a	8f#	.	.	.	8ff#	.	.	.	.	.	.
.	.	.	8gg	8g	8e	.	.	.	8gg	.	.	.	.	.	.
=171	=171	=171	=171	=171	=171	=171	=171	=171	=171	=171	=171	=171	=171	=171	=171
2ff#	2.r	2.r	2aa	8f#	8d#	2.BB	2.BB	2ff#	2aa	2.dd#	2.d#	2.F#	2.r	2.r	2.r
.	.	.	.	8a	8f#	.	.	.	.	.	.	.	.	.	.
.	.	.	.	8f#	8d#	.	.	.	.	.	.	.	.	.	.
.	.	.	.	8a	8f#	.	.	.	.	.	.	.	.	.	.
4aa	.	.	8ff#	8f#	8d#	.	.	4aa	8ff#	.	.	.	.	.	.
.	.	.	8dd#	8a	8f#	.	.	.	8dd#	.	.	.	.	.	.
=172	=172	=172	=172	=172	=172	=172	=172	=172	=172	=172	=172	=172	=172	=172	=172
4gg	2.r	2.r	8ee	8g	8e	4E	4E	4gg	8ee	4ee	4e	4G	2.r	2.r	2.r
.	.	.	8dd#	8e	8B	.	.	.	8dd#	.	.	.	.	.	.
2r	.	.	8ee	8g	8e	2r	2r	2r	8ee	2r	2r	2r	.	.	.
.	.	.	8ff#	8e	8B	.	.	.	8ff#	.	.	.	.	.	.
.	.	.	8gg	8b	8g	.	.	.	8gg	.	.	.	.	.	.
.	.	.	8aa	8a	8f#	.	.	.	8aa	.	.	.	.	.	.
=173	=173	=173	=173	=173	=173	=173	=173	=173	=173	=173	=173	=173	=173	=173	=173
2dd	2.r	2.r	2.bb	2.g#	2.e#	2.E#	2.E#	2dd	2.bb	2dd	2.d	2.E#	2.r	2.r	2.r
4bb	.	.	.	.	.	.	.	4bb	.	4b	.	.	.	.	.
=174	=174	=174	=174	=174	=174	=174	=174	=174	=174	=174	=174	=174	=174	=174	=174
4aa#	4e	2.r	4aa#	4f#	4f#	8F#	8F#	4aa#	4aa#	4cc#	4c#	4F#	4ee	4e	4ee
.	.	.	.	.	.	8F#	8F#	.	.	.	.	.	.	.	.
4ff#	4e	.	4ff#	4a#	4f#	8F#	8F#	4ff#	4ff#	4a#	4F#	4F#	4ee	4e	4ee
.	.	.	.	.	.	8F#	8F#	.	.	.	.	.	.	.	.
4ff#	4e	.	4ff#	4a#	4f#	8F#	8F#	4ff#	4ff#	4a#	4F#	4F#	4ee	4e	4ee
.	.	.	.	.	.	8F#	8F#	.	.	.	.	.	.	.	.
=175	=175	=175	=175	=175	=175	=175	=175	=175	=175	=175	=175	=175	=175	=175	=175
8ff#	4.e	2.r	8ff#	8a#	8f#	8F#	8F#	8ff#	8ff#	8a#	4FF#	4FF#	4.ee	4.e	4.ee
8gg#	.	.	8gg#	8b	8e#	8F#	8F#	8gg#	8ee#	8b	.	.	.	.	.
2gg#	.	.	2gg#	2b	2e#	8F#	8F#	2gg#	2ee#	2b	4F#	4F#	.	.	.
.	8e	.	.	.	.	8F#	8F#	.	.	.	.	.	8ee	8e	8ee
.	8e	.	.	.	.	8F#	8F#	.	.	.	4F#	4F#	8ee	8e	8ee
.	8e	.	.	.	.	8F#	8F#	.	.	.	.	.	8ee	8e	8ee
=176	=176	=176	=176	=176	=176	=176	=176	=176	=176	=176	=176	=176	=176	=176	=176
8gg#	4.e	2.r	8gg#	8b	8e#	8F#	8F#	8gg#	8ee#	8b	4FF#	4FF#	4.ee	4.e	4.ee
8aa#	.	.	8aa#	8cc#	8e	8F#	8F#	8aa#	8ee	8cc#	.	.	.	.	.
2aa#	.	.	2aa#	2cc#	2e	8F#	8F#	2aa#	2ee	2cc#	4F#	4F#	.	.	.
.	8e	.	.	.	.	8F#	8F#	.	.	.	.	.	8ee	8e	8ee
.	8e	.	.	.	.	8F#	8F#	.	.	.	4F#	4F#	8ee	8e	8ee
.	8e	.	.	.	.	8F#	8F#	.	.	.	.	.	8ee	8e	8ee
=177	=177	=177	=177	=177	=177	=177	=177	=177	=177	=177	=177	=177	=177	=177	=177
8aa#	4.e	2.r	8aa#	8cc#	8e	8F#	8F#	8aa#	8ee	8cc#	4FF#	4FF#	4.ee	4.e	4.ee
8bb	.	.	8bb	8dd	8d	8F#	8F#	8bb	8dd	8b	.	.	.	.	.
2bb	.	.	2bb	2dd	2d	8F#	8F#	2bb	2dd	2b	4F#	4F#	.	.	.
.	8e	.	.	.	.	8F#	8F#	.	.	.	.	.	8ee	8e	8ee
.	8e	.	.	.	.	8F#	8F#	.	.	.	4F#	4F#	8ee	8e	8ee
.	8e	.	.	.	.	8F#	8F#	.	.	.	.	.	8ee	8e	8ee
=178	=178	=178	=178	=178	=178	=178	=178	=178	=178	=178	=178	=178	=178	=178	=178
8bb	4.c	4D	8bb	8dd	8D	8F#	8F#	8bb	8d	8b	4FF#	4FF#	4.cc	4.c	4.cc
8ccc	.	.	8ccc	8aa	8d	8F#	8F#	8ccc	8dd	8cc	.	.	.	.	.
2ccc	.	4D	2ccc	2aa	2d	8F#	8F#	2ccc	2dd	2cc	4F#	4F#	.	.	.
.	8c	.	.	.	.	8F#	8F#	.	.	.	.	.	8cc	8c	8cc
.	8c	4D	.	.	.	8F#	8F#	.	.	.	4F#	4F#	8cc	8c	8cc
.	8c	.	.	.	.	8F#	8F#	.	.	.	.	.	8cc	8c	8cc
=179	=179	=179	=179	=179	=179	=179	=179	=179	=179	=179	=179	=179	=179	=179	=179
8ccc	4.c	4D	8ccc	8aa	8D	8G	8G	8ccc	8d	8cc	4GG	4GG	4.cc	4.c	4.cc
8bb	.	.	8bb	8gg	8d	8G	8G	8bb	8dd	8b	.	.	.	.	.
4bb	.	2r	4bb	8gg	2d	8G	8G	4bb	2dd	2b	4G	4G	.	.	.
.	8cc	.	.	8dd	.	8G	8G	.	.	.	.	.	8cc	8cc	8cc
8bb	8cc	.	8bb	8bb	.	8G	8G	8bb	.	.	4G	4G	8cc	8cc	8cc
8ddd	8cc	.	8ddd	8aa	.	8G	8G	8ddd	.	.	.	.	8cc	8cc	8cc
=180	=180	=180	=180	=180	=180	=180	=180	=180	=180	=180	=180	=180	=180	=180	=180
2.ddd	4.dd	2.r	2.ddd	2.gg# 2.b	4d	8E	8E	2.ddd	8dd	8b	4EE	4EE	4.dd	4.dd	4.dd
.	.	.	.	.	.	8E	8E	.	8gg#	8dd	.	.	.	.	.
.	.	.	.	.	4b	8E	8E	.	2gg#	2dd	4E	4E	.	.	.
.	8dd	.	.	.	.	8E	8E	.	.	.	.	.	8dd	8dd	8dd
.	8dd	.	.	.	4g#	8E	8E	.	.	.	4E	4E	8dd	8dd	8dd
.	8dd	.	.	.	.	8E	8E	.	.	.	.	.	8dd	8dd	8dd
=181	=181	=181	=181	=181	=181	=181	=181	=181	=181	=181	=181	=181	=181	=181	=181
4ccc#	4g	4AA	4ccc#	4a 4aa	4e	4A	4A	4ccc#	4aa	4cc#	4AA	4AA	4dd	4g	4dd
4eee	4g	4AA	4eee	4gg 4cc#	4c#	4AA	4AA	4eee	4gg	4cc#	4A	4A	4dd	4g	4dd
4eee	4g	4AA	4eee	4gg 4cc#	4A	4AA	4AA	4eee	4gg	4cc#	4A	4A	4dd	4g	4dd
=182	=182	=182	=182	=182	=182	=182	=182	=182	=182	=182	=182	=182	=182	=182	=182
[2.eee	[2.g	8AA	8eee	4gg 4cc#	4A	4AA	4AA	[2.eee	[2.gg	[2.cc#	[2.g	[2.e	[2.dd	[2.g	[2.dd
.	.	8AA	8ddd	.	.	.	.	.	.	.	.	.	.	.	.
.	.	8AA	8ccc#	8r	8r	8r	8r	.	.	.	.	.	.	.	.
.	.	8AA	8bb	8gg	8C#	8AA	8AA	.	.	.	.	.	.	.	.
.	.	8AA	8aa	8ff#	8D	8BB	8BB	.	.	.	.	.	.	.	.
.	.	8AA	8gg	8ee	8E	8C#	8C#	.	.	.	.	.	.	.	.
=183	=183	=183	=183	=183	=183	=183	=183	=183	=183	=183	=183	=183	=183	=183	=183
2.eee_	2.g_	8AA	8ff#	8dd	8F#	8D	8D	2.eee_	2.gg_	2.cc#_	2.g_	2.e_	2.dd_	2.g_	2.dd_
.	.	8AA	8ee	8cc#	8G	8E	8E	.	.	.	.	.	.	.	.
.	.	8AA	8dd	8b	8A	8F#	8F#	.	.	.	.	.	.	.	.
.	.	8AA	8cc#	8a	8B	8G	8G	.	.	.	.	.	.	.	.
.	.	8AA	8b	8g	8c#	8A	8A	.	.	.	.	.	.	.	.
.	.	8AA	8a	8f#	8d	8B	8B	.	.	.	.	.	.	.	.
=184	=184	=184	=184	=184	=184	=184	=184	=184	=184	=184	=184	=184	=184	=184	=184
4eee]	4g]	4AA	4g	4e	8e	8c#	8c#	4eee]	4gg]	4cc#]	4g]	4e]	4dd]	4g]	4dd]
.	.	.	.	.	8f#	8d	8d	.	.	.	.	.	.	.	.
4eee	4g	4AA	4gg 4a	4e 4c#	8g	8e	8e	4eee	4gg	4cc#	4g	4e	4dd	4g	4dd
.	.	.	.	.	8f#	8d	8d	.	.	.	.	.	.	.	.
4eee	4g	4AA	4gg 4a	4c# 4e	8e	8c#	8c#	4eee	4gg	4cc#	4g	4e	4dd	4g	4dd
.	.	.	.	.	8d	8B	8B	.	.	.	.	.	.	.	.
=185	=185	=185	=185	=185	=185	=185	=185	=185	=185	=185	=185	=185	=185	=185	=185
4eee	4g	4AA	4gg 4a	4e 4c#	4c#	4A	4A	4eee	4gg	4cc#	4g	4e	4dd	4g	4dd
2r	2r	2r	2r	2r	2r	2r	2r	2r	2r	2r	2r	2r	2r	2r	2r
=186	=186	=186	=186	=186	=186	=186	=186	=186	=186	=186	=186	=186	=186	=186	=186
2.r	2.r	2.r	2.r	2.r	2.r	2.r	2.r	2.r	2.r	2.r	2.r	2.r	2.r	2.r	2.r
=187	=187	=187	=187	=187	=187	=187	=187	=187	=187	=187	=187	=187	=187	=187	=187
2.r	2.r	2.r	2f#	2d	2.r	4DD	4D	2.r	2.r	2.r	2.r	2.r	2.r	2.r	2.r
.	.	.	.	.	.	4D	2r	.	.	.	.	.	.	.	.
.	.	.	8g	8e	.	4D	.	.	.	.	.	.	.	.	.
.	.	.	8e	8c#	.	.	.	.	.	.	.	.	.	.	.
=188	=188	=188	=188	=188	=188	=188	=188	=188	=188	=188	=188	=188	=188	=188	=188
2.r	2.r	2.r	4f#	4d	2.r	4D	2.r	2.r	2.r	2.r	2.r	2.r	2.r	2.r	2.r
.	.	.	4g	4e	.	4D	.	.	.	.	.	.	.	.	.
.	.	.	4a	4f#	.	4D	.	.	.	.	.	.	.	.	.
=189	=189	=189	=189	=189	=189	=189	=189	=189	=189	=189	=189	=189	=189	=189	=189
2.r	2.r	2.r	2b	2.g	2.r	4DD	4D	2.r	2.r	2.r	2.r	2.r	2.r	2.r	2.r
.	.	.	.	.	.	4D	2r	.	.	.	.	.	.	.	.
.	.	.	8ee	.	.	4D	.	.	.	.	.	.	.	.	.
.	.	.	8cc#	.	.	.	.	.	.	.	.	.	.	.	.
=190	=190	=190	=190	=190	=190	=190	=190	=190	=190	=190	=190	=190	=190	=190	=190
2.r	2.r	2.r	4dd	4f#	2.r	4D	2.r	2.r	2.r	2.r	2.r	2.r	2.r	2.r	2.r
.	.	.	4a	2r	.	2r	.	.	.	.	.	.	.	.	.
.	.	.	4a	.	.	.	.	.	.	.	.	.	.	.	.
=191	=191	=191	=191	=191	=191	=191	=191	=191	=191	=191	=191	=191	=191	=191	=191
2.r	2.r	2.r	4a	2d	2.r	2B	2B	2.r	2.r	2.r	2.r	2.r	2.r	2.r	2.r
.	.	.	4g	.	.	.	.	.	.	.	.	.	.	.	.
.	.	.	4f#	4c#	.	4A	4A	.	.	.	.	.	.	.	.
=192	=192	=192	=192	=192	=192	=192	=192	=192	=192	=192	=192	=192	=192	=192	=192
2.r	2.r	2.r	4f#	2B	2.r	2G	2G	2.r	2.r	2.r	2.r	2.r	2.r	2.r	2.r
.	.	.	4e	.	.	.	.	.	.	.	.	.	.	.	.
.	.	.	4d	4A	.	4F#	4F#	.	.	.	.	.	.	.	.
=193	=193	=193	=193	=193	=193	=193	=193	=193	=193	=193	=193	=193	=193	=193	=193
2.r	2.r	2.r	8c#	4A	2.r	2E	2E	2.r	2.r	2.r	2.r	2.r	2.r	2.r	2.r
.	.	.	8a	.	.	.	.	.	.	.	.	.	.	.	.
.	.	.	4g	4c#	.	.	.	.	.	.	.	.	.	.	.
.	.	.	4f#	4d	.	4D	4D	.	.	.	.	.	.	.	.
=194	=194	=194	=194	=194	=194	=194	=194	=194	=194	=194	=194	=194	=194	=194	=194
2.r	2.r	2.r	2f#	2d	2.r	4AA	4AA	2.r	2.r	2.r	2.r	2.r	2.r	2.r	2.r
.	.	.	.	.	.	4A	4A	.	.	.	.	.	.	.	.
.	.	.	8e	8c#	.	4A	4A	.	.	.	.	.	.	.	.
.	.	.	8r	8r	.	.	.	.	.	.	.	.	.	.	.
=195	=195	=195	=195	=195	=195	=195	=195	=195	=195	=195	=195	=195	=195	=195	=195
2.r	2.r	2.r	8r	2f#	2d	4D	4D	2.r	2.r	2.r	2.r	2.r	2.r	2.r	2.r
.	.	.	8aa	.	.	.	.	.	.	.	.	.	.	.	.
.	.	.	8aa	.	.	2r	2r	.	.	.	.	.	.	.	.
.	.	.	8aa	.	.	.	.	.	.	.	.	.	.	.	.
.	.	.	8aa	8g	8e	.	.	.	.	.	.	.	.	.	.
.	.	.	8aa	8e	8c#	.	.	.	.	.	.	.	.	.	.
=196	=196	=196	=196	=196	=196	=196	=196	=196	=196	=196	=196	=196	=196	=196	=196
2.r	2.r	2.r	8bb	4f#	4d	2.r	2.r	2.r	2.r	2.r	2.r	2.r	2.r	2.r	2.r
.	.	.	8aa	.	.	.	.	.	.	.	.	.	.	.	.
.	.	.	8aa	4g	4e	.	.	.	.	.	.	.	.	.	.
.	.	.	8gg	.	.	.	.	.	.	.	.	.	.	.	.
.	.	.	8gg	4a	4f#	.	.	.	.	.	.	.	.	.	.
.	.	.	8ff#	.	.	.	.	.	.	.	.	.	.	.	.
=197	=197	=197	=197	=197	=197	=197	=197	=197	=197	=197	=197	=197	=197	=197	=197
2.r	2.r	2.r	8ff#	2b	2.g	2.r	2.r	2.r	2.r	2.r	2.r	2.r	2.r	2.r	2.r
.	.	.	8ee	.	.	.	.	.	.	.	.	.	.	.	.
.	.	.	8dd#	.	.	.	.	.	.	.	.	.	.	.	.
.	.	.	8ee	.	.	.	.	.	.	.	.	.	.	.	.
.	.	.	8gg	8ee	.	.	.	.	.	.	.	.	.	.	.
.	.	.	8bb	8cc#	.	.	.	.	.	.	.	.	.	.	.
=198	=198	=198	=198	=198	=198	=198	=198	=198	=198	=198	=198	=198	=198	=198	=198
2.r	2.r	2.r	8bb	4dd	2.f#	2.r	2.r	2.r	2.r	2.r	2.r	2.r	2.r	2.r	2.r
.	.	.	8aa	.	.	.	.	.	.	.	.	.	.	.	.
.	.	.	8gg	4a	.	.	.	.	.	.	.	.	.	.	.
.	.	.	8ff#	.	.	.	.	.	.	.	.	.	.	.	.
.	.	.	8ee	4a	.	.	.	.	.	.	.	.	.	.	.
.	.	.	8dd	.	.	.	.	.	.	.	.	.	.	.	.
=199	=199	=199	=199	=199	=199	=199	=199	=199	=199	=199	=199	=199	=199	=199	=199
2.r	2.r	2.r	8dd	4g	4e	2.r	2.r	2.r	2.r	2.r	2.r	2.r	2.r	2.r	2.r
.	.	.	8cc#	.	.	.	.	.	.	.	.	.	.	.	.
.	.	.	8ee	2f#	2d	.	.	.	.	.	.	.	.	.	.
.	.	.	8dd	.	.	.	.	.	.	.	.	.	.	.	.
.	.	.	8cc#	.	.	.	.	.	.	.	.	.	.	.	.
.	.	.	8b	.	.	.	.	.	.	.	.	.	.	.	.
=200	=200	=200	=200	=200	=200	=200	=200	=200	=200	=200	=200	=200	=200	=200	=200
2.r	2.r	2.r	8b	4e	4c#	2.r	2.r	2.r	2.r	2.r	2.r	2.r	2.r	2.r	2.r
.	.	.	8a	.	.	.	.	.	.	.	.	.	.	.	.
.	.	.	8cc#	2d	2B	.	.	.	.	.	.	.	.	.	.
.	.	.	8b	.	.	.	.	.	.	.	.	.	.	.	.
.	.	.	8a	.	.	.	.	.	.	.	.	.	.	.	.
.	.	.	8g	.	.	.	.	.	.	.	.	.	.	.	.
=201	=201	=201	=201	=201	=201	=201	=201	=201	=201	=201	=201	=201	=201	=201	=201
2.r	2.r	2.r	8g	4c#	4A	2.r	2.r	2.r	2.r	2.r	2.r	2.r	2.r	2.r	2.r
.	.	.	8f#	.	.	.	.	.	.	.	.	.	.	.	.
.	.	.	8a	2B	2G	.	.	.	.	.	.	.	.	.	.
.	.	.	8g	.	.	.	.	.	.	.	.	.	.	.	.
.	.	.	8f#	.	.	.	.	.	.	.	.	.	.	.	.
.	.	.	8e	.	.	.	.	.	.	.	.	.	.	.	.
=202	=202	=202	=202	=202	=202	=202	=202	=202	=202	=202	=202	=202	=202	=202	=202
2.r	2.r	2.r	8e	4A	4F#	2.r	2.r	2.r	2.r	2.r	2.r	2.r	2.r	2.r	2.r
.	.	.	8d	.	.	.	.	.	.	.	.	.	.	.	.
.	.	.	8f#	4B	4G	.	.	.	.	.	.	.	.	.	.
.	.	.	8e	.	.	.	.	.	.	.	.	.	.	.	.
.	.	.	8g	4c#	4A	.	.	.	.	.	.	.	.	.	.
.	.	.	8f#	.	.	.	.	.	.	.	.	.	.	.	.
=203	=203	=203	=203	=203	=203	=203	=203	=203	=203	=203	=203	=203	=203	=203	=203
2.r	2.r	2.r	8a	4d	4B	2.r	2.r	2.r	2.r	2.r	2.r	2.r	2.r	2.r	2.r
.	.	.	8g	.	.	.	.	.	.	.	.	.	.	.	.
.	.	.	8b	4e	4c#	.	.	.	.	.	.	.	.	.	.
.	.	.	8g	.	.	.	.	.	.	.	.	.	.	.	.
.	.	.	8f#	4f#	4d	.	.	.	.	.	.	.	.	.	.
.	.	.	8dd	.	.	.	.	.	.	.	.	.	.	.	.
=204	=204	=204	=204	=204	=204	=204	=204	=204	=204	=204	=204	=204	=204	=204	=204
2.r	2.r	2.r	8cc#	2.B	2G	2.r	2.r	2.r	2.r	2.r	2.r	2.r	2.r	2.r	2.r
.	.	.	8b	.	.	.	.	.	.	.	.	.	.	.	.
.	.	.	8a	.	.	.	.	.	.	.	.	.	.	.	.
.	.	.	8g	.	.	.	.	.	.	.	.	.	.	.	.
.	.	.	8f#	.	4G#	.	.	.	.	.	.	.	.	.	.
.	.	.	8e	.	.	.	.	.	.	.	.	.	.	.	.
=205	=205	=205	=205	=205	=205	=205	=205	=205	=205	=205	=205	=205	=205	=205	=205
4aa	4G	4AA	8d	4A	4A	[2.AA	[2.AA	4aa	2.aa	2.a	4AA	4AA	4g	4G	4g
.	.	.	8c#	.	.	.	.	.	.	.	.	.	.	.	.
4ccc#	2r	2r	8A	4aa	4c#	.	.	4ccc#	.	.	2r	2r	2r	2r	2r
.	.	.	8c#	.	.	.	.	.	.	.	.	.	.	.	.
4ccc#	.	.	8e	4aa	4c#	.	.	4ccc#	.	.	.	.	.	.	.
.	.	.	8a	.	.	.	.	.	.	.	.	.	.	.	.
=206	=206	=206	=206	=206	=206	=206	=206	=206	=206	=206	=206	=206	=206	=206	=206
2.ddd	4G	4AA	4b	2.gg#	2.d	2.AA_	2.AA_	2.ddd	2.gg#	2.b	4AA	4AA	4g	4G	4g
.	2r	2r	8B	.	.	.	.	.	.	.	2r	2r	2r	2r	2r
.	.	.	8d	.	.	.	.	.	.	.	.	.	.	.	.
.	.	.	8g#	.	.	.	.	.	.	.	.	.	.	.	.
.	.	.	8b	.	.	.	.	.	.	.	.	.	.	.	.
=207	=207	=207	=207	=207	=207	=207	=207	=207	=207	=207	=207	=207	=207	=207	=207
2.eee	4G	4AA	4cc#	4gg	4e	2.AA_	2.AA_	2.eee	2.gg	2.cc#	4AA	4AA	4g	4G	4g
.	2r	2r	8c#	4.gg	4.e	.	.	.	.	.	2r	2r	2r	2r	2r
.	.	.	8e	.	.	.	.	.	.	.	.	.	.	.	.
.	.	.	8a	.	.	.	.	.	.	.	.	.	.	.	.
.	.	.	8cc#	16ff#	16d	.	.	.	.	.	.	.	.	.	.
.	.	.	.	16gg	16e	.	.	.	.	.	.	.	.	.	.
=208	=208	=208	=208	=208	=208	=208	=208	=208	=208	=208	=208	=208	=208	=208	=208
2.ddd	4G	4AA	4dd	2.ff#	2.d	2.AA_	2.AA_	2.ddd	2.ff#	2.dd	4AA	4AA	4g	4G	4g
.	2r	2r	16d	.	.	.	.	.	.	.	2r	2r	2r	2r	2r
.	.	.	16e	.	.	.	.	.	.	.	.	.	.	.	.
.	.	.	16f#	.	.	.	.	.	.	.	.	.	.	.	.
.	.	.	16g	.	.	.	.	.	.	.	.	.	.	.	.
.	.	.	16a	.	.	.	.	.	.	.	.	.	.	.	.
.	.	.	16b	.	.	.	.	.	.	.	.	.	.	.	.
.	.	.	16cc#	.	.	.	.	.	.	.	.	.	.	.	.
.	.	.	16dd	.	.	.	.	.	.	.	.	.	.	.	.
=209	=209	=209	=209	=209	=209	=209	=209	=209	=209	=209	=209	=209	=209	=209	=209
2.aa	4g	4AA	4ee	4cc#	4g	2.AA]	2.AA]	2.aa	2.ee	2.cc#	4AA	4AA	4g	4G	4dd
.	2r	2r	8e	4.cc#	4g	.	.	.	.	.	2r	2r	2r	2r	2r
.	.	.	8g	.	.	.	.	.	.	.	.	.	.	.	.
.	.	.	8cc#	.	4g	.	.	.	.	.	.	.	.	.	.
.	.	.	8ee	16b	.	.	.	.	.	.	.	.	.	.	.
.	.	.	.	16cc#	.	.	.	.	.	.	.	.	.	.	.
=210	=210	=210	=210	=210	=210	=210	=210	=210	=210	=210	=210	=210	=210	=210	=210
[2.aa	[2.cc	4D	8ff#	8dd	4f#	4D	4D	[2.aa	[2.ff#	[2.dd	4D	4D	[2.cc	[2.e	[2.ee
.	.	.	8r	8r	.	.	.	.	.	.	.	.	.	.	.
.	.	2r	12aa	12ff#	2r	2r	2r	.	.	.	2r	2r	.	.	.
.	.	.	12aa	12ff#	.	.	.	.	.	.	.	.	.	.	.
.	.	.	12aa	12ff#	.	.	.	.	.	.	.	.	.	.	.
.	.	.	12ff#	12dd	.	.	.	.	.	.	.	.	.	.	.
.	.	.	12ff#	12dd	.	.	.	.	.	.	.	.	.	.	.
.	.	.	12ff#	12dd	.	.	.	.	.	.	.	.	.	.	.
=211	=211	=211	=211	=211	=211	=211	=211	=211	=211	=211	=211	=211	=211	=211	=211
2.aa]	2.cc]	2.r	12dd	12a	2.r	2.r	2.r	2.aa]	2.ff#]	2.dd]	2.r	2.r	2.cc]	2.e]	2.ee]
.	.	.	12dd	12a	.	.	.	.	.	.	.	.	.	.	.
.	.	.	12dd	12a	.	.	.	.	.	.	.	.	.	.	.
.	.	.	12a	12f#	.	.	.	.	.	.	.	.	.	.	.
.	.	.	12a	12f#	.	.	.	.	.	.	.	.	.	.	.
.	.	.	12a	12f#	.	.	.	.	.	.	.	.	.	.	.
.	.	.	12f#	12d	.	.	.	.	.	.	.	.	.	.	.
.	.	.	12f#	12d	.	.	.	.	.	.	.	.	.	.	.
.	.	.	12f#	12d	.	.	.	.	.	.	.	.	.	.	.
=212	=212	=212	=212	=212	=212	=212	=212	=212	=212	=212	=212	=212	=212	=212	=212
[2.bb	[2.c	4D	12b	12g	4G	4GG	4GG	[2.bb	[2.gg	2.dd	4G	4G	[2.cc	[2.c	[2.c
.	.	.	12b	12g	.	.	.	.	.	.	.	.	.	.	.
.	.	.	12b	12g	.	.	.	.	.	.	.	.	.	.	.
.	.	2r	12ddd	12bb	2r	2r	2r	.	.	.	2r	2r	.	.	.
.	.	.	12ddd	12bb	.	.	.	.	.	.	.	.	.	.	.
.	.	.	12ddd	12bb	.	.	.	.	.	.	.	.	.	.	.
.	.	.	12bb	12gg	.	.	.	.	.	.	.	.	.	.	.
.	.	.	12bb	12gg	.	.	.	.	.	.	.	.	.	.	.
.	.	.	12bb	12gg	.	.	.	.	.	.	.	.	.	.	.
=213	=213	=213	=213	=213	=213	=213	=213	=213	=213	=213	=213	=213	=213	=213	=213
2.bb]	2.c]	2.r	12gg	12ee	2.r	2.r	2.r	2.bb]	2.gg]	2.ee	2.r	2.r	2.cc]	2.c]	2.c]
.	.	.	12gg	12ee	.	.	.	.	.	.	.	.	.	.	.
.	.	.	12gg	12ee	.	.	.	.	.	.	.	.	.	.	.
.	.	.	12bb	12gg	.	.	.	.	.	.	.	.	.	.	.
.	.	.	12bb	12gg	.	.	.	.	.	.	.	.	.	.	.
.	.	.	12bb	12gg	.	.	.	.	.	.	.	.	.	.	.
.	.	.	12gg	12ee	.	.	.	.	.	.	.	.	.	.	.
.	.	.	12gg	12ee	.	.	.	.	.	.	.	.	.	.	.
.	.	.	12gg	12ee	.	.	.	.	.	.	.	.	.	.	.
=214	=214	=214	=214	=214	=214	=214	=214	=214	=214	=214	=214	=214	=214	=214	=214
2aa	2.g	4AA	2ee 2a	2cc#	2.A	2GG	2GG	2aa	2.ee	2.cc#	2GG	2GG	2.dd	2.g	2.g
.	.	8AA	.	.	.	.	.	.	.	.	.	.	.	.	.
.	.	8AA	.	.	.	.	.	.	.	.	.	.	.	.	.
8bb	.	8AA	8bb	8cc#	.	8G	8G	8bb	.	.	8G	8G	.	.	.
8aa	.	8AA	8aa	8dd	.	8F#	8F#	8aa	.	.	8F#	8F#	.	.	.
=215	=215	=215	=215	=215	=215	=215	=215	=215	=215	=215	=215	=215	=215	=215	=215
4aa	4cc	4D	4aa	4dd	4A	4F#	4F#	4aa	4ff#	[2.dd	4F#	4F#	4ee	4cc	4cc
2ddd	2cc	8D	2ddd	2a 2d	2F#	2F#	2F#	2ddd	2aa	.	2F#	2F#	2cc	2cc	2cc
.	.	8D	.	.	.	.	.	.	.	.	.	.	.	.	.
.	.	8D	.	.	.	.	.	.	.	.	.	.	.	.	.
.	.	8D	.	.	.	.	.	.	.	.	.	.	.	.	.
=216	=216	=216	=216	=216	=216	=216	=216	=216	=216	=216	=216	=216	=216	=216	=216
8ccc#	4cc	4D	8ccc#	4b 4d	4G	4G	4G	8ccc#	4dd	4dd]	4G	4G	4cc	4cc	4cc
8bb	.	.	8bb	.	.	.	.	8bb	.	.	.	.	.	.	.
8aa	2r	2r	8aa	2r	2r	2r	2r	8aa	2r	2r	2r	2r	2r	2r	2r
8gg	.	.	8gg	.	.	.	.	8gg	.	.	.	.	.	.	.
8ff#	.	.	8ff#	.	.	.	.	8ff#	.	.	.	.	.	.	.
8ee	.	.	8ee	.	.	.	.	8ee	.	.	.	.	.	.	.
=217	=217	=217	=217	=217	=217	=217	=217	=217	=217	=217	=217	=217	=217	=217	=217
2dd	2cc	4AA	2dd	2f#	4A	2.A	2.A	2dd	2ff#	2dd	2.A	2.A	2ee	2cc	2ee
.	.	8AA	.	.	4d	.	.	.	.	.	.	.	.	.	.
.	.	8AA	.	.	.	.	.	.	.	.	.	.	.	.	.
8ff#	4g	4AA	8ff#	8a	4c#	.	.	8ff#	4ee	4cc#	.	.	4dd	4g	4dd
8ee	.	.	8ee	8g	.	.	.	8ee	.	.	.	.	.	.	.
=218	=218	=218	=218	=218	=218	=218	=218	=218	=218	=218	=218	=218	=218	=218	=218
4dd	4e	4D	8dd	4f#	4d	4D	4D	4dd	4dd	4dd	4D	4D	4cc	4e	4cc
.	.	.	8d	.	.	.	.	.	.	.	.	.	.	.	.
2r	2r	2r	8e	2r	2r	2r	2r	2r	2r	2r	2r	2r	2r	2r	2r
.	.	.	8f#	.	.	.	.	.	.	.	.	.	.	.	.
.	.	.	8g	.	.	.	.	.	.	.	.	.	.	.	.
.	.	.	8a	.	.	.	.	.	.	.	.	.	.	.	.
=219	=219	=219	=219	=219	=219	=219	=219	=219	=219	=219	=219	=219	=219	=219	=219
2.r	2.r	2.r	8b	2.r	2.r	2.r	2.r	2.r	2.r	2.r	2.r	2.r	2.r	2.r	2.r
.	.	.	8cc#	.	.	.	.	.	.	.	.	.	.	.	.
.	.	.	8dd	.	.	.	.	.	.	.	.	.	.	.	.
.	.	.	8ee	.	.	.	.	.	.	.	.	.	.	.	.
.	.	.	8ff#	.	.	.	.	.	.	.	.	.	.	.	.
.	.	.	8gg	.	.	.	.	.	.	.	.	.	.	.	.
=220	=220	=220	=220	=220	=220	=220	=220	=220	=220	=220	=220	=220	=220	=220	=220
2.r	2.r	2.r	2aa	8f#	8d	4D	4D	2.r	2.r	2.r	2.r	2.r	2.r	2.r	2.r
.	.	.	.	8a	8f#	.	.	.	.	.	.	.	.	.	.
.	.	.	.	8f#	8d	2r	2r	.	.	.	.	.	.	.	.
.	.	.	.	8a	8f#	.	.	.	.	.	.	.	.	.	.
.	.	.	8ff#	8f#	8d	.	.	.	.	.	.	.	.	.	.
.	.	.	8dd	8a	8f#	.	.	.	.	.	.	.	.	.	.
=221	=221	=221	=221	=221	=221	=221	=221	=221	=221	=221	=221	=221	=221	=221	=221
2.r	2.r	2.r	8dd	8g	8e	4A	4A	2.r	2.r	2.r	2g	2.r	2.r	2.r	2.r
.	.	.	8cc#	8a	8g	.	.	.	.	.	.	.	.	.	.
.	.	.	4cc#	8g	8e	2r	2r	.	.	.	.	.	.	.	.
.	.	.	.	8a	8g	.	.	.	.	.	.	.	.	.	.
.	.	.	4a	8g	8e	.	.	.	.	.	8e	.	.	.	.
.	.	.	.	8a	8g	.	.	.	.	.	8c#	.	.	.	.
=222	=222	=222	=222	=222	=222	=222	=222	=222	=222	=222	=222	=222	=222	=222	=222
2.r	2.r	2.r	8dd	8f#	8d	4D	4D	2.r	2.r	2.r	8d	2.r	2.r	2.r	2.r
.	.	.	8cc#	8a	8f#	.	.	.	.	.	8c#	.	.	.	.
.	.	.	8dd	8f#	8d	2r	2r	.	.	.	8d	.	.	.	.
.	.	.	8ee	8a	8f#	.	.	.	.	.	8e	.	.	.	.
.	.	.	8ff#	8f#	8d	.	.	.	.	.	8f#	.	.	.	.
.	.	.	8gg	8a	8f#	.	.	.	.	.	8g	.	.	.	.
=223	=223	=223	=223	=223	=223	=223	=223	=223	=223	=223	=223	=223	=223	=223	=223
2.r	2.r	2.r	4ee	8g	8c#	4A	4A	2.r	2.r	2.r	4e	2.r	2.r	2.r	2.r
.	.	.	.	8a	8g	.	.	.	.	.	.	.	.	.	.
.	.	.	4a	8g	8e	2r	2r	.	.	.	4A	.	.	.	.
.	.	.	.	8a	8g	.	.	.	.	.	.	.	.	.	.
.	.	.	8bb	8g	8c#	.	.	.	.	.	4r	.	.	.	.
.	.	.	8aa	8a	8g	.	.	.	.	.	.	.	.	.	.
=224	=224	=224	=224	=224	=224	=224	=224	=224	=224	=224	=224	=224	=224	=224	=224
2.r	2.r	2.r	2aa	8f#	8d	4D	4D	2.r	2.r	2.r	2.r	2.r	2.r	2.r	2.r
.	.	.	.	8a	8f#	.	.	.	.	.	.	.	.	.	.
.	.	.	.	8f#	8d	2r	2r	.	.	.	.	.	.	.	.
.	.	.	.	8a	8f#	.	.	.	.	.	.	.	.	.	.
.	.	.	8ff#	8f#	8d	.	.	.	.	.	.	.	.	.	.
.	.	.	8dd	8a	8f#	.	.	.	.	.	.	.	.	.	.
=225	=225	=225	=225	=225	=225	=225	=225	=225	=225	=225	=225	=225	=225	=225	=225
2.r	2.r	2.r	8dd	8g	8e	4A	4A	2.r	2.r	2.r	2g	2.r	2.r	2.r	2.r
.	.	.	8cc#	8a	8g	.	.	.	.	.	.	.	.	.	.
.	.	.	4cc#	8g	8e	2r	2r	.	.	.	.	.	.	.	.
.	.	.	.	8a	8g	.	.	.	.	.	.	.	.	.	.
.	.	.	4a	8g	8e	.	.	.	.	.	8e	.	.	.	.
.	.	.	.	8a	8g	.	.	.	.	.	8c#	.	.	.	.
=226	=226	=226	=226	=226	=226	=226	=226	=226	=226	=226	=226	=226	=226	=226	=226
2.r	2.r	2.r	8dd	8f#	8d	4D	4D	2.r	2.r	2.r	8d	2.r	2.r	2.r	2.r
.	.	.	8cc#	8a	8f#	.	.	.	.	.	8c#	.	.	.	.
.	.	.	8dd	8f#	8a	4r	4r	.	.	.	8d	.	.	.	.
.	.	.	8ff#	8a	8d	.	.	.	.	.	8f#	.	.	.	.
.	.	.	8ee	8g	8c#	4A	4A	.	.	.	8e	.	.	.	.
.	.	.	8cc#	8e	8e	.	.	.	.	.	8c#	.	.	.	.
=227	=227	=227	=227	=227	=227	=227	=227	=227	=227	=227	=227	=227	=227	=227	=227
2.r	2.r	2.r	8dd	4f#	4d	4D	4D	2.r	8r	2.r	4d	2.r	2.r	2.r	2.r
.	.	.	8d	.	.	.	.	.	8d	.	.	.	.	.	.
.	.	.	8e	2r	2r	2r	2r	.	8e	.	2r	.	.	.	.
.	.	.	8f#	.	.	.	.	.	8f#	.	.	.	.	.	.
.	.	.	8g	.	.	.	.	.	8g	.	.	.	.	.	.
.	.	.	8a	.	.	.	.	.	8a	.	.	.	.	.	.
=228	=228	=228	=228	=228	=228	=228	=228	=228	=228	=228	=228	=228	=228	=228	=228
2.r	2.r	2.r	8b	2.r	2.r	2.r	2.r	2.r	8b	2.r	2.r	2.r	2.r	2.r	2.r
.	.	.	8cc#	.	.	.	.	.	8cc#	.	.	.	.	.	.
.	.	.	8dd	.	.	.	.	.	8dd	.	.	.	.	.	.
.	.	.	8ee	.	.	.	.	.	8ee	.	.	.	.	.	.
.	.	.	8ff#	.	.	.	.	.	8ff#	.	.	.	.	.	.
.	.	.	8gg	.	.	.	.	.	8gg	.	.	.	.	.	.
=229	=229	=229	=229	=229	=229	=229	=229	=229	=229	=229	=229	=229	=229	=229	=229
2.r	2.r	2.r	2aa	8f#	8d	4D	4D	2.r	2aa	2.r	2.r	2.r	4r	4r	2.r
.	.	.	.	8a	8f#	.	.	.	.	.	.	.	.	.	.
.	.	.	.	8f#	8d	2r	2r	.	.	.	.	.	4ee	4cc	.
.	.	.	.	8a	8f#	.	.	.	.	.	.	.	.	.	.
.	.	.	8ff#	8f#	8d	.	.	.	8ff#	.	.	.	4ee	4cc	.
.	.	.	8dd	8a	8f#	.	.	.	8dd	.	.	.	.	.	.
=230	=230	=230	=230	=230	=230	=230	=230	=230	=230	=230	=230	=230	=230	=230	=230
2eee	2.r	2.r	8dd	8g	8e	4A	4A	2eee	8dd	2.r	2g	2g	4r	4r	2.r
.	.	.	8cc#	8a	8g	.	.	.	8cc#	.	.	.	.	.	.
.	.	.	4cc#	8g	8e	2r	2r	.	4cc#	.	.	.	4dd	4g	.
.	.	.	.	8a	8g	.	.	.	.	.	.	.	.	.	.
8ccc#	.	.	4a	8g	8e	.	.	8ccc#	4a	.	8e	8e	4dd	4g	.
8aa	.	.	.	8a	8g	.	.	8aa	.	.	8c#	8c#	.	.	.
=231	=231	=231	=231	=231	=231	=231	=231	=231	=231	=231	=231	=231	=231	=231	=231
4ddd	2.r	2.r	8dd	8f#	8d	4D	4D	4ddd	8dd	2.r	4d	4d	4r	4r	2.r
.	.	.	8cc#	8a	8f#	.	.	.	8cc#	.	.	.	.	.	.
2r	.	.	8dd	8f#	8d	2r	2r	2r	8dd	.	2r	2r	4cc	4e	.
.	.	.	8ee	8a	8f#	.	.	.	8ee	.	.	.	.	.	.
.	.	.	8ff#	8f#	8d	.	.	.	8ff#	.	.	.	4cc	4e	.
.	.	.	8gg	8a	8f#	.	.	.	8gg	.	.	.	.	.	.
=232	=232	=232	=232	=232	=232	=232	=232	=232	=232	=232	=232	=232	=232	=232	=232
2.r	2.r	2.r	4ee	8g	8e	4A	4A	2.r	4ee	2.r	2r	2r	4r	4r	2.r
.	.	.	.	8a	8g	.	.	.	.	.	.	.	.	.	.
.	.	.	4a	8g	8e	4r	4r	.	4a	.	.	.	4dd	4g	.
.	.	.	.	8a	8g	.	.	.	.	.	.	.	.	.	.
.	.	.	8bb	8c#	8e	8G	8G	.	8bb	.	8G	8G	4dd	4g	.
.	.	.	8aa	8d	8f#	8F#	8F#	.	8aa	.	8F#	8F#	.	.	.
=233	=233	=233	=233	=233	=233	=233	=233	=233	=233	=233	=233	=233	=233	=233	=233
4r	4r	4D	4aa	4d	4f#	4F#	4F#	4r	4aa	4r	4F#	4F#	4r	4r	4r
2ddd	2c	2r	2ddd	4r	4r	4r	4r	2ddd	2ddd	2dd	4r	4r	2cc	2c	2cc
.	.	.	.	8b	8g	8G	8G	.	.	.	8G	8G	.	.	.
.	.	.	.	8a	8f#	8F#	8F#	.	.	.	8F#	8F#	.	.	.
=234	=234	=234	=234	=234	=234	=234	=234	=234	=234	=234	=234	=234	=234	=234	=234
4r	4r	4D	4r	4a	4f#	4F#	4F#	4r	4r	4r	4F#	4F#	4r	4r	4r
2ddd	2c	2r	2ddd	4r	4r	4r	4r	2ddd	2ddd	2dd	4r	4r	2cc	2c	2cc
.	.	.	.	8b	8g	8g	8g	.	.	.	8g	8g	.	.	.
.	.	.	.	8a	8f#	8f#	8f#	.	.	.	8f#	8f#	.	.	.
=235	=235	=235	=235	=235	=235	=235	=235	=235	=235	=235	=235	=235	=235	=235	=235
4r	2.r	2.r	4r	4a	4f#	4f#	4f#	4r	4r	2r	4f#	4f#	2.r	2.r	2.r
2ccc	.	.	2ccc	4r	4r	4r	4r	2ccc	2ccc	.	4r	4r	.	.	.
.	.	.	.	8g	8e	8e	8e	.	.	8gg	8e	8e	.	.	.
.	.	.	.	8f#	8d#	8d#	8d#	.	.	8ff#	8d#	8d#	.	.	.
=236	=236	=236	=236	=236	=236	=236	=236	=236	=236	=236	=236	=236	=236	=236	=236
4ccc	2.r	2.r	4ccc	4f#	4d#	4d#	4d#	4ccc	4ccc	4ff#	4d#	4d#	2.r	2.r	2.r
4bb	.	.	4bb	4g	4e	4e	4e	4bb	4bb	4gg	4e	4e	.	.	.
8bb-	.	.	8bb-	8e	8c#	8c#	8c#	8bb-	8bb-	8ee	8c#	8c#	.	.	.
8aa	.	.	8aa	8f#	8d	8d	8d	8aa	8aa	8ff#	8d	8d	.	.	.
=237	=237	=237	=237	=237	=237	=237	=237	=237	=237	=237	=237	=237	=237	=237	=237
4aa	2.r	2.r	4aa	4f#	4d	4d	4d	4aa	4aa	4ff#	4d	4d	2.r	2.r	2.r
4gg#	.	.	4gg#	8d	8B	8B	8B	4gg#	4gg#	8dd	8B	8B	.	.	.
.	.	.	.	8e	8c#	8c#	8c#	.	.	8ee	8c#	8c#	.	.	.
8gg	.	.	8gg	8e	8c#	8c#	8c#	8gg	8gg	8ee	8c#	8c#	.	.	.
8ff#	.	.	8ff#	8f#	8d	8d	8d	8ff#	8ff#	8ff#	8d	8d	.	.	.
=238	=238	=238	=238	=238	=238	=238	=238	=238	=238	=238	=238	=238	=238	=238	=238
4ff#	4r	4r	4ff#	4A	4d	4d	4d	4ff#	4ff#	4a	4d	4d	4r	4r	4r
4.ff	4c	4D	4.ff	2B	2d	2G#	2G#	4.ff	4.ff	2b	2G#	2G#	4cc	4c	4cc
.	4c	4D	.	.	.	.	.	.	.	.	.	.	4cc	4c	4cc
16ee	.	.	16ee	.	.	.	.	16ee	16ee	.	.	.	.	.	.
16dd	.	.	16dd	.	.	.	.	16dd	16dd	.	.	.	.	.	.
=239	=239	=239	=239	=239	=239	=239	=239	=239	=239	=239	=239	=239	=239	=239	=239
4cc#	2g	4AA	4cc#	2e 2A	2e	2G	2G	4cc#	4cc#	4e	2G	2G	2dd	2g	2dd
4ccc#	.	8AA	4ccc#	.	.	.	.	4ccc#	4ccc#	4ee	.	.	.	.	.
.	.	8AA	.	.	.	.	.	.	.	.	.	.	.	.	.
4ddd	4cc	4D	4ddd	4A 4f#	4a	4F#	4F#	4ddd	4ddd	4ff#	4F#	4F#	4ee	4cc	4ee
=240	=240	=240	=240	=240	=240	=240	=240	=240	=240	=240	=240	=240	=240	=240	=240
4bb	4dd	4D	4bb	4d	4g	4G	4G	4bb	4bb	4dd	4G	4G	4ff	4dd	4ff
2r	2r	2r	2r	2r	2r	2r	2r	2r	2r	2r	2r	2r	2r	2r	2r
=241	=241	=241	=241	=241	=241	=241	=241	=241	=241	=241	=241	=241	=241	=241	=241
4cc#	4g	4AA	4cc#	4g 4A	4e	4A	4A	4cc#	4cc#	4g	4A	4A	4dd	4g	4dd
2r	2r	2r	2r	2r	2r	2r	2r	2r	2r	2r	2r	2r	2r	2r	2r
=242	=242	=242	=242	=242	=242	=242	=242	=242	=242	=242	=242	=242	=242	=242	=242
4dd	4c	4D	8dd	8f#	8d	8d	8d	4dd	4dd	4f#	4D	4D	4cc	4c	4cc
.	.	.	8d	8d	8d	8D	8D	.	.	.	.	.	.	.	.
2r	2r	2r	8e	8e	8e	8E	8E	2r	2r	2r	2r	2r	2r	2r	2r
.	.	.	8f#	8f#	8f#	8F#	8F#	.	.	.	.	.	.	.	.
.	.	.	8g	8g	8g	8G	8G	.	.	.	.	.	.	.	.
.	.	.	8f#	8f#	8f#	8F#	8F#	.	.	.	.	.	.	.	.
=243	=243	=243	=243	=243	=243	=243	=243	=243	=243	=243	=243	=243	=243	=243	=243
4ddd	4c	4D	8g	8g	8g	8G	8G	4ddd	4dd	4dd	4DD	4DD	4cc	4c	4cc
.	.	.	8a	8a	8a	8A	8A	.	.	.	.	.	.	.	.
2r	2r	2r	8b	8b	8b	8B	8B	2r	2r	2r	2r	2r	2r	2r	2r
.	.	.	8f#	8f#	8f#	8F#	8F#	.	.	.	.	.	.	.	.
.	.	.	8g	8g	8g	8G	8G	.	.	.	.	.	.	.	.
.	.	.	8f#	8f#	8f#	8F#	8F#	.	.	.	.	.	.	.	.
=244	=244	=244	=244	=244	=244	=244	=244	=244	=244	=244	=244	=244	=244	=244	=244
4ddd	4c	4D	8g	8g	8g	8G	8G	4ddd	4dd	4dd	4DD	4DD	4cc	4c	4cc
.	.	.	8a	8a	8a	8A	8A	.	.	.	.	.	.	.	.
2r	2r	2r	8b	8b	8b	8B	8B	2r	2r	2r	2r	2r	2r	2r	2r
.	.	.	8f#	8f#	8f#	8F#	8F#	.	.	.	.	.	.	.	.
.	.	.	8g	8g	8g	8G	8G	.	.	.	.	.	.	.	.
.	.	.	8f#	8f#	8f#	8F#	8F#	.	.	.	.	.	.	.	.
=245	=245	=245	=245	=245	=245	=245	=245	=245	=245	=245	=245	=245	=245	=245	=245
4ddd	4c	4D	8g	8g	8g	8G	8G	4ddd	4dd	4dd	4DD	4DD	4cc	4c	4cc
.	.	.	8a	8a	8a	8A	8A	.	.	.	.	.	.	.	.
2r	2r	2r	8b	8b	8b	8B	8B	2r	2r	2r	2r	2r	2r	2r	2r
.	.	.	8a	8a	8a	8A	8A	.	.	.	.	.	.	.	.
.	.	.	8b	8b	8b	8B	8B	.	.	.	.	.	.	.	.
.	.	.	8a	8a	8a	8A	8A	.	.	.	.	.	.	.	.
=246	=246	=246	=246	=246	=246	=246	=246	=246	=246	=246	=246	=246	=246	=246	=246
4ddd	4c	4D	8b	8b	8b	8B	8B	4ddd	4dd	4dd	4DD	4DD	4cc	4c	4cc
.	.	.	8a	8a	8a	8A	8A	.	.	.	.	.	.	.	.
2r	2r	2r	8b	8b	8b	8B	8B	2r	2r	2r	2r	2r	2r	2r	2r
.	.	.	8a	8a	8a	8A	8A	.	.	.	.	.	.	.	.
.	.	.	8b	8b	8b	8B	8B	.	.	.	.	.	.	.	.
.	.	.	8cc#	8cc#	8cc#	8c#	8c#	.	.	.	.	.	.	.	.
=247	=247	=247	=247	=247	=247	=247	=247	=247	=247	=247	=247	=247	=247	=247	=247
4dd	4cc	4D	8dd	8dd	8dd	8d	8d	4dd	4dd	4dd	8d	8d	4cc	4e	4ee
.	.	.	8ff#	8ff#	8a	8A	8A	.	.	.	8A	8A	.	.	.
4ee	4g	4AA	8ee	8ee	8cc#	8c#	8c#	4ee	4ee	4ee	8c#	8c#	4dd	4g	4dd
.	.	.	8aa	8aa	8a	8A	8A	.	.	.	8A	8A	.	.	.
4aa	4r	4r	8a	8a	8cc#	8c#	8c#	4aa	4aa	4aa	8c#	8c#	4r	4r	4r
.	.	.	8aa	8aa	8a	8A	8A	.	.	.	8A	8A	.	.	.
=248	=248	=248	=248	=248	=248	=248	=248	=248	=248	=248	=248	=248	=248	=248	=248
4dd	4cc	4D	8dd	8dd	8dd	8d	8d	4dd	4dd	4dd	8d	8d	4cc	4e	4ee
.	.	.	8ff#	8ff#	8a	8A	8A	.	.	.	8A	8A	.	.	.
4ee	4g	4AA	8ee	8ee	8cc#	8c#	8c#	4ee	4ee	4ee	8c#	8c#	4dd	4g	4dd
.	.	.	8aa	8aa	8a	8A	8A	.	.	.	8A	8A	.	.	.
4aa	4r	4r	8a	8a	8cc#	8c#	8c#	4aa	4aa	4aa	8c#	8c#	4r	4r	4r
.	.	.	8aa	8aa	8a	8A	8A	.	.	.	8A	8A	.	.	.
=249	=249	=249	=249	=249	=249	=249	=249	=249	=249	=249	=249	=249	=249	=249	=249
8aa	2.r	2.r	8aa	8aa	8b	8B	8B	8aa	8aa	8aa	8B	8B	2.r	2.r	2.r
8gg	.	.	8gg	8gg	8dd	8d	8d	8gg	8gg	8gg	8d	8d	.	.	.
4ff#	.	.	8ff#	8ff#	8a	8A	8A	4ff#	4ff#	4ff#	8A	8A	.	.	.
.	.	.	8f#	8f#	8cc#	8c#	8c#	.	.	.	8c#	8c#	.	.	.
8ff#	.	.	8ff#	8ff#	8g	8G	8G	8ff#	8ff#	8ff#	8G	8G	.	.	.
8ee	.	.	8ee	8ee	8b	8B	8B	8ee	8ee	8ee	8B	8B	.	.	.
=250	=250	=250	=250	=250	=250	=250	=250	=250	=250	=250	=250	=250	=250	=250	=250
4dd	2.r	2.r	8dd	8dd	8f#	8F#	8F#	4dd	4dd	4dd	8F#	8F#	2.r	2.r	2.r
.	.	.	8d	8d	8a	8A	8A	.	.	.	8A	8A	.	.	.
8ddd	.	.	8dd	8dd	8e	8E	8E	8ddd	8dd	8dd	8E	8E	.	.	.
8ccc#	.	.	8cc#	8cc#	8g	8G	8G	8ccc#	8cc#	8cc#	8G	8G	.	.	.
4bb	.	.	8b	8b	8d	8D	8D	4bb	4b	4b	8D	8D	.	.	.
.	.	.	8B	8B	8f#	8F#	8F#	.	.	.	8F#	8F#	.	.	.
=251	=251	=251	=251	=251	=251	=251	=251	=251	=251	=251	=251	=251	=251	=251	=251
8bb	2.r	2.r	8b	8b	8c#	8C#	8C#	8bb	8b	8b	8C#	8C#	2.r	2.r	2.r
8aa	.	.	8a	8a	8e	8E	8E	8aa	8a	8a	8E	8E	.	.	.
4gg#	.	.	8g#	8g#	8B	8BB	8BB	4gg#	4g#	4g#	8BB	8BB	.	.	.
.	.	.	8f	8f	8d	8D	8D	.	.	.	8D	8D	.	.	.
4gg#	.	.	8d	8d	8B	8BB	8BB	4gg#	4g#	4g#	8BB	8BB	.	.	.
.	.	.	8B	8B	8d	8D	8D	.	.	.	8D	8D	.	.	.
=252	=252	=252	=252	=252	=252	=252	=252	=252	=252	=252	=252	=252	=252	=252	=252
2.gg#	4c	4D	2.G#	2.G#	8B	8BB	8BB	2.gg#	2.g#	2.dd	8BB	8BB	4cc	4c	4cc
.	.	.	.	.	8d	8D	8D	.	.	.	8D	8D	.	.	.
.	8c	8D	.	.	8B	8BB	8BB	.	.	.	8BB	8BB	8cc	8c	8cc
.	8c	8D	.	.	8d	8D	8D	.	.	.	8D	8D	8cc	8c	8cc
.	4c	4D	.	.	8B	8BB	8BB	.	.	.	8BB	8BB	4cc	4c	4cc
.	.	.	.	.	8d	8D	8D	.	.	.	8D	8D	.	.	.
=253	=253	=253	=253	=253	=253	=253	=253	=253	=253	=253	=253	=253	=253	=253	=253
2.gg	4c	4D	2.G	2.G	8B-	8BB-	8BB-	2.gg	2.g	2.dd	8BB-	8BB-	4cc	4c	4cc
.	.	.	.	.	8d	8D	8D	.	.	.	8D	8D	.	.	.
.	8c	8D	.	.	8B-	8BB-	8BB-	.	.	.	8BB-	8BB-	8cc	8c	8cc
.	8c	8D	.	.	8d	8D	8D	.	.	.	8D	8D	8cc	8c	8cc
.	4c	4D	.	.	8B-	8BB-	8BB-	.	.	.	8BB-	8BB-	4cc	4c	4cc
.	.	.	.	.	8d	8D	8D	.	.	.	8D	8D	.	.	.
=254	=254	=254	=254	=254	=254	=254	=254	=254	=254	=254	=254	=254	=254	=254	=254
2.ee	2.g	4AA	8G	4G	8A	8AA	8AA	2.ee	2.gg	2.cc#	2.AA	2.AA	2.dd	2.g	2.dd
.	.	.	8c#	.	8g	8AA	8AA	.	.	.	.	.	.	.	.
.	.	2r	8e	4cc# 4e	8g	8AA	8AA	.	.	.	.	.	.	.	.
.	.	.	8g	.	8g	8AA	8AA	.	.	.	.	.	.	.	.
.	.	.	8cc#	4cc# 4e	8g	8AA	8AA	.	.	.	.	.	.	.	.
.	.	.	8ee	.	8g	8AA	8AA	.	.	.	.	.	.	.	.
=255	=255	=255	=255	=255	=255	=255	=255	=255	=255	=255	=255	=255	=255	=255	=255
2.ff#	2.cc	4AA	8d	4dd 4f#	8f#	8AA	8AA	2.ff#	2.ff#	2.dd	2.AA	2.AA	2.ee	2.cc	2.ee
.	.	.	8f#	.	8f#	8AA	8AA	.	.	.	.	.	.	.	.
.	.	2r	8a	4dd 4f#	8f#	8AA	8AA	.	.	.	.	.	.	.	.
.	.	.	8dd	.	8f#	8AA	8AA	.	.	.	.	.	.	.	.
.	.	.	8ff#	4f# 4dd	8f#	8AA	8AA	.	.	.	.	.	.	.	.
.	.	.	8aa	.	8f#	8AA	8AA	.	.	.	.	.	.	.	.
=256	=256	=256	=256	=256	=256	=256	=256	=256	=256	=256	=256	=256	=256	=256	=256
2.aa	2.g	4AA	8e	4cc# 4ee	8e	8GG	8GG	2.aa	2.ee	2.cc#	2.GG	2.GG	2.dd	2.g	2.dd
.	.	.	8g	.	8e	8GG	8GG	.	.	.	.	.	.	.	.
.	.	8AA	8cc#	4ee 4cc#	8e	8GG	8GG	.	.	.	.	.	.	.	.
.	.	8AA	8ee	.	8e	8GG	8GG	.	.	.	.	.	.	.	.
.	.	8AA	8gg	4cc# 4ee	8e	8GG	8GG	.	.	.	.	.	.	.	.
.	.	8AA	8ccc#	.	8e	8GG	8GG	.	.	.	.	.	.	.	.
=257	=257	=257	=257	=257	=257	=257	=257	=257	=257	=257	=257	=257	=257	=257	=257
4ddd	4cc	4D	4ddd	4ff# 4a 4d	4d	4FF#	4FF#	4ddd	4ff#	4dd	4FF#	4FF#	4cc	4cc	4cc
2r	2r	2r	2r	2r	2r	2r	2r	2r	2r	2r	2r	2r	2r	2r	2r
=258	=258	=258	=258	=258	=258	=258	=258	=258	=258	=258	=258	=258	=258	=258	=258
4bb	4cc	4D	4bb 4dd 4g	4d 4B	4G	4GG	4GG	4bb	4bb	4dd	4GG	4GG	4cc	4cc	4cc
2r	2r	2r	2r	2r	2r	2r	2r	2r	2r	2r	2r	2r	2r	2r	2r
=259	=259	=259	=259	=259	=259	=259	=259	=259	=259	=259	=259	=259	=259	=259	=259
4aa	4cc	4D	4f# 4aa 4dd	4ff# 4dd	4A	4AA	4AA	4aa	4ff#	4dd	4AA	4AA	4ee	4cc	4ee
2r	2r	2r	2r	2r	2r	2r	2r	2r	2r	2r	2r	2r	2r	2r	2r
=260	=260	=260	=260	=260	=260	=260	=260	=260	=260	=260	=260	=260	=260	=260	=260
4cc#	4g	4AA	4A 4cc# 4e	4A 4cc# 4e	4A	4AA	4AA	4cc#	4ee	4cc#	4AA	4AA	4dd	4g	4dd
2r	2r	2r	2r	2r	2r	2r	2r	2r	2r	2r	2r	2r	2r	2r	2r
=261	=261	=261	=261	=261	=261	=261	=261	=261	=261	=261	=261	=261	=261	=261	=261
4dd	4e	4D	8d	8d	8D	8D	8D	4dd	4dd	4dd	4D	4D	4cc	4e	4cc
.	.	.	8f#	8f#	8F#	8F#	8F#	.	.	.	.	.	.	.	.
4r	4r	4r	8a	8a	8A	8A	8A	4r	4r	4r	4r	4r	4r	4r	4r
.	.	.	8dd	8dd	8d	8d	8d	.	.	.	.	.	.	.	.
4ddd	4cc	8D	8ff#	8ff#	8f#	8f#	8f#	4ddd	4ddd	[4ff#	4d	[4F#	4ccc	4cc	4ee
.	.	8D	8r	8r	8r	8r	8r	.	.	.	.	.	.	.	.
=262	=262	=262	=262	=262	=262	=262	=262	=262	=262	=262	=262	=262	=262	=262	=262
4aa	4ee	4D	8d	8d	8D	8D	8D	4aa	4aa	4ff#]	4A	4F#]	4gg	4ee	4gg
.	.	.	8f#	8f#	8F#	8F#	8F#	.	.	.	.	.	.	.	.
4r	4r	4r	8a	8a	8A	8A	8A	4r	4r	4r	4r	4r	4r	4r	4r
.	.	.	8dd	8dd	8d	8d	8d	.	.	.	.	.	.	.	.
4ff#	4ee	8D	8ff#	8ff#	8f#	8f#	8f#	4ff#	4aa	4ff#	4A	4F#	4gg	4ee	4gg
.	.	8D	8r	8r	8r	8r	8r	.	.	.	.	.	.	.	.
=263	=263	=263	=263	=263	=263	=263	=263	=263	=263	=263	=263	=263	=263	=263	=263
4dd	4cc	4D	8d	8d	8D	8D	8D	4dd	4ff#	4dd	4F#	4D	4ee	4cc	4ee
.	.	.	8f#	8f#	8F#	8F#	8F#	.	.	.	.	.	.	.	.
4r	4r	4r	8a	8a	8A	8A	8A	4r	4r	4r	4r	4r	4r	4r	4r
.	.	.	8dd	8dd	8d	8d	8d	.	.	.	.	.	.	.	.
8dd	4cc	8D	8ff#	8ff#	8f#	8f#	8f#	8dd	4ff#	8dd	4F#	4D	4ee	4cc	4ee
8a	.	8D	8r	8r	8r	8r	8r	8a	.	8a	.	.	.	.	.
=264	=264	=264	=264	=264	=264	=264	=264	=264	=264	=264	=264	=264	=264	=264	=264
4f#	4e	4D	8d	8d	8d	8D	8D	4f#	4dd	4f#	4D	4D	4cc	4e	4cc
.	.	.	8f#	8f#	8f#	8F#	8F#	.	.	.	.	.	.	.	.
4f#	4e	4D	8a	8a	8a	8A	8A	4f#	4dd	4f#	4D	4D	4cc	4e	4cc
.	.	.	8dd	8dd	8dd	8d	8d	.	.	.	.	.	.	.	.
4f#	4e	4D	8ff#	8ff#	8a	8A	8A	4f#	4dd	4f#	4D	4D	4cc	4e	4cc
.	.	.	8aa	8aa	8f#	8F#	8F#	.	.	.	.	.	.	.	.
=265	=265	=265	=265	=265	=265	=265	=265	=265	=265	=265	=265	=265	=265	=265	=265
4f#	4e	4D	4ddd	4ddd	4d	4D	4D	4f#	4dd	4f#	4D	4D	4cc	4e	4cc
2r	2r	2r	2r	2r	2r	2r	2r	2r	2r	2r	2r	2r	2r	2r	2r
=266	=266	=266	=266	=266	=266	=266	=266	=266	=266	=266	=266	=266	=266	=266	=266
4a	4e	4D	4d 4ddd 4ff#	4ff# 4d 4a	4d 4A 4D	4D	4D	4a	4ff#	4a	4DD	4DD	4cc	4e	4cc
2r	2r	2r	2r	2r	2r	2r	2r	2r	2r	2r	2r	2r	2r	2r	2r
=267	=267	=267	=267	=267	=267	=267	=267	=267	=267	=267	=267	=267	=267	=267	=267
4f#	4e	4D	4ddd 4dd 4d	4d 4ff# 4a	4d 4A 4D	4D	4D	4f#	4dd	4f#	4DD	4DD	4cc	4e	4cc
2r	2r	2r	2r	2r	2r	2r	2r	2r	2r	2r	2r	2r	2r	2r	2r
==	==	==	==	==	==	==	==	==	==	==	==	==	==	==	==
*-	*-	*-	*-	*-	*-	*-	*-	*-	*-	*-	*-	*-	*-	*-	*-
!!!RWG1: This file contains only pitch and duration data.
!!!RWG2: Transposing instruments are not transposed.
!!!RWG3: Spines may have incompatible meters.
!!!RWG4: Durations of rests and tied notes may be interpreted.
!!!RWG: Key is interpreted using the Humdrum key tool.
!!!AFT: stage1
!!!END: 1997/04/15
!!format changes:
!!content changes:
!!public access: complete
!!!KEY: 707925220
!!!EMD: Converted from MuseData to Humdrum Dec 16, 2000, by Andreas Kornstaedt using muse2kern.
